!!!!SEGMENT: pl-wtm--r-704-m--017_moniuszko-stanislaw--widma-no-11.krn
!!!cenid: 18xx:3072
!!!COM: Moniuszko, Stanisław
!!!COM-rismID: pe30008351
!!!CDT: 1819/05/05-1872/06/04
!!!CNT: Polish
!!!GTL: Widma
!!!OTL: No. 11
!!!OMV: 017
!!!PDT: 1852
!!!AGN: Secular
!!!SMS-siglum: PL-Wtm
!!!SMS-shelfmark: R 704/M
!!!SMS-shelfwork: G
!!!SMS-variant:
!!!SMS-altvar:
!!!NIFC-rismSourceID: 1001093778
!!!NIFC-islandoraID:
!!!URL-pdf-islandora:
!!!URL-scan:
!!!ONB-nifc: UWAGA: skany 0060-0063. Nie wpisywać tekstu rosyjskiego i samodzielnych dialogów poza krótkimi didaskaliami.
!!!AIN: 1 alto 3 empty 1 soprn 1 tenor
!!!key:
**kern	**fing	**kern	**dynam	**kern	**text	**text	**kern	**text	**text	**dynam	**kern	**text	**text	**dynam	**kern	**text	**text	**dynam	**kern
*	*	*	*	*group1	*	*	*group1	*	*	*	*group1	*	*	*	*group1	*	*	*	*
*part6	*	*part6	*part6	*part5	*part5	*part5	*part4	*part4	*part4	*part4	*part3	*part3	*part3	*part3	*part2	*part2	*part2	*part2	*part1
*staff7	*	*staff6	*	*staff5	*staff5	*staff5	*staff4	*staff4	*staff4	*	*staff3	*staff3	*staff3	*	*staff2	*staff2	*staff2	*	*staff1
*	*	*	*	*I""Coro	*	*	*I""Coro	*	*	*	*I""Coro	*	*	*	*I""Coro	*	*	*	*
*Iempty	*	*Iempty	*	*Iempty	*	*	*Itenor	*	*	*	*Ialto	*	*	*	*Isoprn	*	*	*	*Iempty
*	*	*I"F:P:	*	*I"Bassi	*	*	*I"Tenori	*	*	*	*I"Alto.	*	*	*	*I"Sopr.	*	*	*	*I"La fanciulla Zosia
*clefG2	*	*clefG2	*	*clefF4	*	*	*clefG	*	*	*	*clefG2	*	*	*	*clefG2	*	*	*	*clefG2
*	*	*	*	*	*	*	*ITrd8c12	*	*	*	*	*	*	*	*	*	*	*	*
*k[]	*	*k[]	*	*k[]	*	*	*k[]	*	*	*	*k[]	*	*	*	*k[]	*	*	*	*k[]
*F:	*	*F:	*	*F:	*	*	*F:	*	*	*	*F:	*	*	*	*F:	*	*	*	*F:
*M4/4	*	*M4/4	*	*M4/4	*	*	*M4/4	*	*	*	*M4/4	*	*	*	*M4/4	*	*	*	*M4/4
*met(c)	*	*met(c)	*	*met(c)	*	*	*met(c)	*	*	*	*met(c)	*	*	*	*met(c)	*	*	*	*met(c)
=1	=1	=1	=1	=1	=1	=1	=1	=1	=1	=1	=1	=1	=1	=1	=1	=1	=1	=1	=1
!	!	!	!	!	!	!	!	!	!	!	!	!	!	!	!	!	!	!	!LO:TX:t=P:problem=Tekst włoski i polski zamieniają się miejscami względem siebie przez co niektóre słowa ucięte
!	!	!LO:TX:t=P:problem=nazwa instrumentu ze skanu 0048	!LO:DY:rj	!	!	!	!LO:TX:t=P:problem=partia zapisana bez przenośnika oktawowego	!	!	!	!	!	!	!	!	!	!	!	!LO:TX:t=P:problem=nazwy glosow ze skanu nr 0054
(1cc/ 1a/	.	(>16ee\LL	ppp	1ryy	.	.	1ryy	.	.	.	1ryy	.	.	.	1ryy	.	.	.	1ryy
.	.	16ff\	.	.	.	.	.	.	.	.	.	.	.	.	.	.	.	.	.
.	.	16ee\	.	.	.	.	.	.	.	.	.	.	.	.	.	.	.	.	.
.	.	16ff\JJ	.	.	.	.	.	.	.	.	.	.	.	.	.	.	.	.	.
.	.	16ee\LL	.	.	.	.	.	.	.	.	.	.	.	.	.	.	.	.	.
.	.	16ff\	.	.	.	.	.	.	.	.	.	.	.	.	.	.	.	.	.
.	.	16ee\	.	.	.	.	.	.	.	.	.	.	.	.	.	.	.	.	.
.	.	16ff\JJ	.	.	.	.	.	.	.	.	.	.	.	.	.	.	.	.	.
.	.	16ee\LL	.	.	.	.	.	.	.	.	.	.	.	.	.	.	.	.	.
.	.	16ff\	.	.	.	.	.	.	.	.	.	.	.	.	.	.	.	.	.
.	.	16ee\	.	.	.	.	.	.	.	.	.	.	.	.	.	.	.	.	.
.	.	16ff\JJ	.	.	.	.	.	.	.	.	.	.	.	.	.	.	.	.	.
.	.	16ee\LL	.	.	.	.	.	.	.	.	.	.	.	.	.	.	.	.	.
.	.	16ff\	.	.	.	.	.	.	.	.	.	.	.	.	.	.	.	.	.
.	.	16ee\	.	.	.	.	.	.	.	.	.	.	.	.	.	.	.	.	.
.	.	16ff\JJ	.	.	.	.	.	.	.	.	.	.	.	.	.	.	.	.	.
=2	=2	=2	=2	=2	=2	=2	=2	=2	=2	=2	=2	=2	=2	=2	=2	=2	=2	=2	=2
1b/ 1g#X/	.	16ee\LL	.	1ryy	.	.	1ryy	.	.	.	1ryy	.	.	.	1ryy	.	.	.	1ryy
.	.	16ff\	.	.	.	.	.	.	.	.	.	.	.	.	.	.	.	.	.
.	.	16ff#X\	.	.	.	.	.	.	.	.	.	.	.	.	.	.	.	.	.
.	.	16gg\JJ	.	.	.	.	.	.	.	.	.	.	.	.	.	.	.	.	.
.	.	16gg#X\LL	.	.	.	.	.	.	.	.	.	.	.	.	.	.	.	.	.
.	.	16aa\	.	.	.	.	.	.	.	.	.	.	.	.	.	.	.	.	.
.	.	16aa#X\	.	.	.	.	.	.	.	.	.	.	.	.	.	.	.	.	.
.	.	16bb\JJ	.	.	.	.	.	.	.	.	.	.	.	.	.	.	.	.	.
.	.	16ccc\LL	.	.	.	.	.	.	.	.	.	.	.	.	.	.	.	.	.
.	.	16bb\	.	.	.	.	.	.	.	.	.	.	.	.	.	.	.	.	.
.	.	16aa#\	.	.	.	.	.	.	.	.	.	.	.	.	.	.	.	.	.
.	.	16aan\JJ	.	.	.	.	.	.	.	.	.	.	.	.	.	.	.	.	.
.	.	16gg#\LL	.	.	.	.	.	.	.	.	.	.	.	.	.	.	.	.	.
.	.	16ggn\	.	.	.	.	.	.	.	.	.	.	.	.	.	.	.	.	.
.	.	16ff#\	.	.	.	.	.	.	.	.	.	.	.	.	.	.	.	.	.
.	.	16ffn\JJ	.	.	.	.	.	.	.	.	.	.	.	.	.	.	.	.	.
!!LO:LB:g=original
=3	=3	=3	=3	=3	=3	=3	=3	=3	=3	=3	=3	=3	=3	=3	=3	=3	=3	=3	=3
1b-X/ 1gn/	.	16ee\LL	.	1ryy	.	.	1ryy	.	.	.	1ryy	.	.	.	1ryy	.	.	.	1ryy
.	.	16ff\	.	.	.	.	.	.	.	.	.	.	.	.	.	.	.	.	.
.	.	16ee\	.	.	.	.	.	.	.	.	.	.	.	.	.	.	.	.	.
.	.	16ff\JJ	.	.	.	.	.	.	.	.	.	.	.	.	.	.	.	.	.
.	.	16ee\LL	.	.	.	.	.	.	.	.	.	.	.	.	.	.	.	.	.
.	.	16ff\	.	.	.	.	.	.	.	.	.	.	.	.	.	.	.	.	.
.	.	16ee\	.	.	.	.	.	.	.	.	.	.	.	.	.	.	.	.	.
.	.	16ff\JJ	.	.	.	.	.	.	.	.	.	.	.	.	.	.	.	.	.
.	.	16ee\LL	.	.	.	.	.	.	.	.	.	.	.	.	.	.	.	.	.
.	.	16ff\	.	.	.	.	.	.	.	.	.	.	.	.	.	.	.	.	.
.	.	16ee\	.	.	.	.	.	.	.	.	.	.	.	.	.	.	.	.	.
.	.	16ff\JJ	.	.	.	.	.	.	.	.	.	.	.	.	.	.	.	.	.
.	.	16ee\LL	.	.	.	.	.	.	.	.	.	.	.	.	.	.	.	.	.
.	.	16ff\	.	.	.	.	.	.	.	.	.	.	.	.	.	.	.	.	.
.	.	16ee\	.	.	.	.	.	.	.	.	.	.	.	.	.	.	.	.	.
.	.	16ff\JJ	.	.	.	.	.	.	.	.	.	.	.	.	.	.	.	.	.
=4	=4	=4	=4	=4	=4	=4	=4	=4	=4	=4	=4	=4	=4	=4	=4	=4	=4	=4	=4
1a/ 1f#X/)	.	16ee\LL	.	1ryy	.	.	1ryy	.	.	.	1ryy	.	.	.	1ryy	.	.	.	1ryy
.	.	16dd#X\	.	.	.	.	.	.	.	.	.	.	.	.	.	.	.	.	.
.	.	16ee\	.	.	.	.	.	.	.	.	.	.	.	.	.	.	.	.	.
.	.	16ee#X\JJ	.	.	.	.	.	.	.	.	.	.	.	.	.	.	.	.	.
.	.	16ff#X\LL	.	.	.	.	.	.	.	.	.	.	.	.	.	.	.	.	.
.	.	16gg\	.	.	.	.	.	.	.	.	.	.	.	.	.	.	.	.	.
.	.	16gg#X\	.	.	.	.	.	.	.	.	.	.	.	.	.	.	.	.	.
.	.	16aa\JJ	.	.	.	.	.	.	.	.	.	.	.	.	.	.	.	.	.
.	.	16bb\LL	.	.	.	.	.	.	.	.	.	.	.	.	.	.	.	.	.
.	.	16aa\	.	.	.	.	.	.	.	.	.	.	.	.	.	.	.	.	.
.	.	16gg#\	.	.	.	.	.	.	.	.	.	.	.	.	.	.	.	.	.
.	.	16ggn\JJ	.	.	.	.	.	.	.	.	.	.	.	.	.	.	.	.	.
.	.	16ff#\LL	.	.	.	.	.	.	.	.	.	.	.	.	.	.	.	.	.
.	.	16ffn\	.	.	.	.	.	.	.	.	.	.	.	.	.	.	.	.	.
.	.	16ee#\	.	.	.	.	.	.	.	.	.	.	.	.	.	.	.	.	.
.	.	16dd#X\JJ)	.	.	.	.	.	.	.	.	.	.	.	.	.	.	.	.	.
=5	=5	=5	=5	=5	=5	=5	=5	=5	=5	=5	=5	=5	=5	=5	=5	=5	=5	=5	=5
*^	*	*	*	*	*	*	*	*	*	*	*	*	*	*	*	*	*	*	*
*	*2\right	*	*	*	*	*	*	*	*	*	*	*	*	*	*	*	*	*	*	*
[1a/	(>2.f\	.	(16ddn\LL	.	1ryy	.	.	1ryy	.	.	.	1ryy	.	.	.	1ryy	.	.	.	1ryy
.	.	.	16ee\	.	.	.	.	.	.	.	.	.	.	.	.	.	.	.	.	.
.	.	.	16dd\	.	.	.	.	.	.	.	.	.	.	.	.	.	.	.	.	.
.	.	.	16ee\JJ	.	.	.	.	.	.	.	.	.	.	.	.	.	.	.	.	.
.	.	.	16dd\LL	.	.	.	.	.	.	.	.	.	.	.	.	.	.	.	.	.
.	.	.	16ee\	.	.	.	.	.	.	.	.	.	.	.	.	.	.	.	.	.
.	.	.	16dd\	.	.	.	.	.	.	.	.	.	.	.	.	.	.	.	.	.
.	.	.	16ee\JJ	.	.	.	.	.	.	.	.	.	.	.	.	.	.	.	.	.
.	.	.	16dd\LL	.	.	.	.	.	.	.	.	.	.	.	.	.	.	.	.	.
.	.	.	16ee\	.	.	.	.	.	.	.	.	.	.	.	.	.	.	.	.	.
.	.	.	16dd\	.	.	.	.	.	.	.	.	.	.	.	.	.	.	.	.	.
.	.	.	16ee\JJ	.	.	.	.	.	.	.	.	.	.	.	.	.	.	.	.	.
.	4e\	.	16cc\LL	.	.	.	.	.	.	.	.	.	.	.	.	.	.	.	.	.
.	.	.	16dd\	.	.	.	.	.	.	.	.	.	.	.	.	.	.	.	.	.
.	.	.	16cc\	.	.	.	.	.	.	.	.	.	.	.	.	.	.	.	.	.
.	.	.	16dd\JJ	.	.	.	.	.	.	.	.	.	.	.	.	.	.	.	.	.
!!LO:LB:g=original
=6	=6	=6	=6	=6	=6	=6	=6	=6	=6	=6	=6	=6	=6	=6	=6	=6	=6	=6	=6	=6
!LO:TX:t=P:problem=zakończenie łuku na dole	!	!	!	!	!	!	!	!	!	!	!	!	!	!	!	!	!	!	!	!
2.a/_	[>2.f\ [<2.d\)	.	16b\LL	.	1ryy	.	.	1ryy	.	.	.	1ryy	.	.	.	1ryy	.	.	.	1ryy
.	.	.	16cc\	.	.	.	.	.	.	.	.	.	.	.	.	.	.	.	.	.
.	.	.	16b\	.	.	.	.	.	.	.	.	.	.	.	.	.	.	.	.	.
.	.	.	16a\JJ	.	.	.	.	.	.	.	.	.	.	.	.	.	.	.	.	.
.	.	.	16b\LL	.	.	.	.	.	.	.	.	.	.	.	.	.	.	.	.	.
.	.	.	16cc\	.	.	.	.	.	.	.	.	.	.	.	.	.	.	.	.	.
.	.	.	16dd\	.	.	.	.	.	.	.	.	.	.	.	.	.	.	.	.	.
.	.	.	16ee\JJ	.	.	.	.	.	.	.	.	.	.	.	.	.	.	.	.	.
.	.	.	16ff\LL	.	.	.	.	.	.	.	.	.	.	.	.	.	.	.	.	.
.	.	.	16ee\	.	.	.	.	.	.	.	.	.	.	.	.	.	.	.	.	.
.	.	.	16dd\	.	.	.	.	.	.	.	.	.	.	.	.	.	.	.	.	.
.	.	.	16ee\JJ	.	.	.	.	.	.	.	.	.	.	.	.	.	.	.	.	.
8a/]L 8f/]	8d\L]	.	16ff\LL	.	.	.	.	.	.	.	.	.	.	.	.	.	.	.	.	.
.	.	.	16gg\	.	.	.	.	.	.	.	.	.	.	.	.	.	.	.	.	.
8a/J 8e/	16c\L	.	16aa\	.	.	.	.	.	.	.	.	.	.	.	.	.	.	.	.	.
.	16B\JJ	.	16bb\JJ)	.	.	.	.	.	.	.	.	.	.	.	.	.	.	.	.	.
*v	*v	*	*	*	*	*	*	*	*	*	*	*	*	*	*	*	*	*	*	*
=7	=7	=7	=7	=7	=7	=7	=7	=7	=7	=7	=7	=7	=7	=7	=7	=7	=7	=7	=7
*	*	*tremolo	*	*	*	*	*	*	*	*	*	*	*	*	*	*	*	*	*
(>2f#X/ 2d#X/ (2A^/	.	(16ccc\LL 16aa\	.	1ryy	.	.	1ryy	.	.	.	1ryy	.	.	.	1ryy	.	.	.	1ryy
.	.	16ddd\ 16bbn\	.	.	.	.	.	.	.	.	.	.	.	.	.	.	.	.	.
.	.	16ccc\ 16aa\	.	.	.	.	.	.	.	.	.	.	.	.	.	.	.	.	.
.	.	16ddd\ 16bb\	.	.	.	.	.	.	.	.	.	.	.	.	.	.	.	.	.
.	.	16ccc\ 16aa\	.	.	.	.	.	.	.	.	.	.	.	.	.	.	.	.	.
.	.	16ddd\ 16bb\	.	.	.	.	.	.	.	.	.	.	.	.	.	.	.	.	.
.	.	16ccc\ 16aa\	.	.	.	.	.	.	.	.	.	.	.	.	.	.	.	.	.
!	!	!LO:ACC:color=grey	!	!	!	!	!	!	!	!	!	!	!	!	!	!	!	!	!
.	.	16ddd\JJ 16bbn\	.	.	.	.	.	.	.	.	.	.	.	.	.	.	.	.	.
[2fn/ [>2dn/	.	16ccc\LL 16aa\	.	.	.	.	.	.	.	.	.	.	.	.	.	.	.	.	.
.	.	16ddd\ 16bb\	.	.	.	.	.	.	.	.	.	.	.	.	.	.	.	.	.
.	.	16ccc\ 16aa\	.	.	.	.	.	.	.	.	.	.	.	.	.	.	.	.	.
.	.	16ddd\ 16bb\	.	.	.	.	.	.	.	.	.	.	.	.	.	.	.	.	.
.	.	16ccc\ 16aa\	.	.	.	.	.	.	.	.	.	.	.	.	.	.	.	.	.
.	.	16ddd\ 16bb\	.	.	.	.	.	.	.	.	.	.	.	.	.	.	.	.	.
.	.	16ccc\ 16aa\	.	.	.	.	.	.	.	.	.	.	.	.	.	.	.	.	.
.	.	16ddd\JJ 16bb\	.	.	.	.	.	.	.	.	.	.	.	.	.	.	.	.	.
=8	=8	=8	=8	=8	=8	=8	=8	=8	=8	=8	=8	=8	=8	=8	=8	=8	=8	=8	=8
2f/_ 2d/] [2A-X/ [2F^/)	.	16ccc\LL 16aa\	.	1ryy	.	.	1ryy	.	.	.	1ryy	.	.	.	1ryy	.	.	.	1ryy
.	.	16bb\ 16gg#X\	.	.	.	.	.	.	.	.	.	.	.	.	.	.	.	.	.
.	.	16ccc\ 16aa\	.	.	.	.	.	.	.	.	.	.	.	.	.	.	.	.	.
.	.	16bb\ 16gg#\	.	.	.	.	.	.	.	.	.	.	.	.	.	.	.	.	.
.	.	16ccc\ 16aa\	.	.	.	.	.	.	.	.	.	.	.	.	.	.	.	.	.
.	.	16bb\ 16gg#\	.	.	.	.	.	.	.	.	.	.	.	.	.	.	.	.	.
.	.	16ccc\ 16aa\	.	.	.	.	.	.	.	.	.	.	.	.	.	.	.	.	.
.	.	16bb\JJ 16gg#X\	.	.	.	.	.	.	.	.	.	.	.	.	.	.	.	.	.
2f/] 2d-X/ 2A-/] 2F/])	.	16ccc\LL 16aa\	.	.	.	.	.	.	.	.	.	.	.	.	.	.	.	.	.
.	.	16bb\ 16gg#\	.	.	.	.	.	.	.	.	.	.	.	.	.	.	.	.	.
.	.	16ccc\ 16aa\	.	.	.	.	.	.	.	.	.	.	.	.	.	.	.	.	.
.	.	16bb\ 16gg#\	.	.	.	.	.	.	.	.	.	.	.	.	.	.	.	.	.
.	.	16ccc\ 16aa\	.	.	.	.	.	.	.	.	.	.	.	.	.	.	.	.	.
.	.	16bb\ 16gg#\	.	.	.	.	.	.	.	.	.	.	.	.	.	.	.	.	.
.	.	16ccc\ 16aa\	.	.	.	.	.	.	.	.	.	.	.	.	.	.	.	.	.
.	.	16bb\JJ 16gg#\)	.	.	.	.	.	.	.	.	.	.	.	.	.	.	.	.	.
*	*	*Xtremolo	*	*	*	*	*	*	*	*	*	*	*	*	*	*	*	*	*
!!LO:LB:g=original
=9|!	=9|!	=9|!	=9|!	=9|!	=9|!	=9|!	=9|!	=9|!	=9|!	=9|!	=9|!	=9|!	=9|!	=9|!	=9|!	=9|!	=9|!	=9|!	=9|!
*k[b-]	*	*k[b-]	*	*k[b-]	*	*	*k[b-]	*	*	*	*k[b-]	*	*	*	*k[b-]	*	*	*	*k[b-]
*^	*	*	*	*	*	*	*	*	*	*	*	*	*	*	*	*	*	*	*
*	*^	*	*	*	*	*	*	*	*	*	*	*	*	*	*	*	*	*	*	*
*	*	*	*	*8va	*	*	*	*	*	*	*	*	*	*	*	*	*2\right	*	*color:red	*	*
!	!	!	!	!	!LO:DY:rj	!	!	!	!	!	!	!	!	!	!	!LO:DY:rj	!	!	!	!LO:DY:rj	!
8r	[1f\	8c\ 8An\ 8F\	.	(16ccc\LL	pp	1r	.	.	1r	.	.	.	2.a/	Tak	.	pp	2.cc\	Tak	Sen-	pp	1ryy
.	.	.	.	16ddd\	.	.	.	.	.	.	.	.	.	.	.	.	.	.	.	.	.
8cc'</L	.	8rD	.	16ccc\	.	.	.	.	.	.	.	.	.	.	.	.	.	.	.	.	.
.	.	.	.	16ddd\JJ	.	.	.	.	.	.	.	.	.	.	.	.	.	.	.	.	.
8aa'</	.	4rD	.	16ccc\LL	.	.	.	.	.	.	.	.	.	.	.	.	.	.	.	.	.
.	.	.	.	16ddd\	.	.	.	.	.	.	.	.	.	.	.	.	.	.	.	.	.
8cc'</J	.	.	.	16ccc\	.	.	.	.	.	.	.	.	.	.	.	.	.	.	.	.	.
.	.	.	.	16ddd\JJ	.	.	.	.	.	.	.	.	.	.	.	.	.	.	.	.	.
8aa'</L	.	2rD	.	16ccc\LL	.	.	.	.	.	.	.	.	.	.	.	.	.	.	.	.	.
.	.	.	.	16ddd\	.	.	.	.	.	.	.	.	.	.	.	.	.	.	.	.	.
8cc'</	.	.	.	16ccc\	.	.	.	.	.	.	.	.	.	.	.	.	.	.	.	.	.
.	.	.	.	16ddd\JJ	.	.	.	.	.	.	.	.	.	.	.	.	.	.	.	.	.
*	*	*	*	*	*	*	*	*	*	*	*	*	*	*ij	*	*	*	*	*	*	*
8gg'</	.	.	.	16ccc\LL	.	.	.	.	.	.	.	.	8.g/	śród	.	.	8.b-\	śród	-za	.	.
.	.	.	.	16ddd\	.	.	.	.	.	.	.	.	.	.	.	.	.	.	.	.	.
8cc'</J	.	.	.	16ccc\	.	.	.	.	.	.	.	.	.	.	.	.	.	.	.	.	.
.	.	.	.	16ddd\JJ	.	.	.	.	.	.	.	.	16g/	pierz-	.	.	16b-\	pierz-	ri-	.	.
*	*v	*v	*	*	*	*	*	*	*	*	*	*	*	*	*	*	*	*	*	*	*
=10	=10	=10	=10	=10	=10	=10	=10	=10	=10	=10	=10	=10	=10	=10	=10	=10	=10	=10	=10	=10
*	*	*	*	*	*	*	*	*	*	*	*	*^	*	*	*	*^	*	*	*	*
8ff'</L	1f\_	.	16aa/LL	.	1r	.	.	1r	.	.	.	2.f/	2.ryy	-chli-	.	.	2.a/	2.ryy	-chli-	-star,	.	1ryy
.	.	.	16bb-/	.	.	.	.	.	.	.	.	.	.	.	.	.	.	.	.	.	.	.
8cc'</	.	.	16aa/	.	.	.	.	.	.	.	.	.	.	.	.	.	.	.	.	.	.	.
.	.	.	16bb-/JJ	.	.	.	.	.	.	.	.	.	.	.	.	.	.	.	.	.	.	.
8ff'</	.	.	16aa/LL	.	.	.	.	.	.	.	.	.	.	.	.	.	.	.	.	.	.	.
.	.	.	16bb-/	.	.	.	.	.	.	.	.	.	.	.	.	.	.	.	.	.	.	.
8cc'</J	.	.	16aa/	.	.	.	.	.	.	.	.	.	.	.	.	.	.	.	.	.	.	.
.	.	.	16bb-/JJ	.	.	.	.	.	.	.	.	.	.	.	.	.	.	.	.	.	.	.
8ff'</L	.	.	16aa/LL	.	.	.	.	.	.	.	.	.	.	.	.	.	.	.	.	.	.	.
.	.	.	16bb-/	.	.	.	.	.	.	.	.	.	.	.	.	.	.	.	.	.	.	.
8cc'</	.	.	16aa/	.	.	.	.	.	.	.	.	.	.	.	.	.	.	.	.	.	.	.
.	.	.	16bb-/JJ	.	.	.	.	.	.	.	.	.	.	.	.	.	.	.	.	.	.	.
8ee'</	.	.	16gg/LL	.	.	.	.	.	.	.	.	4c/	8.c/@	-wej,	.	.	4g/	8.g/@	-wej,	co-	.	.
.	.	.	16aa/	.	.	.	.	.	.	.	.	.	.	.	.	.	.	.	.	.	.	.
8cc'</J	.	.	16gg/	.	.	.	.	.	.	.	.	.	.	.	.	.	.	.	.	.	.	.
.	.	.	16aa/JJ	.	.	.	.	.	.	.	.	.	16c/@	.	.	.	.	16g/@	.	.	.	.
*	*	*	*	*	*	*	*	*	*	*	*	*v	*v	*	*	*	*	*	*	*	*	*
*	*	*	*	*	*	*	*	*	*	*	*	*	*	*	*	*v	*v	*	*	*	*
=11	=11	=11	=11	=11	=11	=11	=11	=11	=11	=11	=11	=11	=11	=11	=11	=11	=11	=11	=11	=11
8a'</L	1f\_	.	16ff/LL	.	1r	.	.	1r	.	.	.	4A/	śród	.	.	4f/	śród	-si	.	1ryy
.	.	.	16aa/	.	.	.	.	.	.	.	.	.	.	.	.	.	.	.	.	.
8cc'</	.	.	16gg/	.	.	.	.	.	.	.	.	.	.	.	.	.	.	.	.	.
.	.	.	16ff/JJ	.	.	.	.	.	.	.	.	.	.	.	.	.	.	.	.	.
8ee'</	.	.	16gg/LL	.	.	.	.	.	.	.	.	4c/	pierz-	.	.	4g/ 4e/	pierz-	d`ins-	.	.
.	.	.	16bb-/	.	.	.	.	.	.	.	.	.	.	.	.	.	.	.	.	.
8cc'</J	.	.	16aa/	.	.	.	.	.	.	.	.	.	.	.	.	.	.	.	.	.
.	.	.	16gg/JJ	.	.	.	.	.	.	.	.	.	.	.	.	.	.	.	.	.
8ff'</L	.	.	16aa/LL	.	.	.	.	.	.	.	.	4f/	-chli-	.	.	4a/ 4f/	-chli-	-ta-	.	.
.	.	.	16ccc/	.	.	.	.	.	.	.	.	.	.	.	.	.	.	.	.	.
8cc'</	.	.	16bb-/	.	.	.	.	.	.	.	.	.	.	.	.	.	.	.	.	.
.	.	.	16aa/JJ	.	.	.	.	.	.	.	.	.	.	.	.	.	.	.	.	.
!	!	!	!	!	!	!	!	!	!	!	!	!	!	!	!	!LO:TX:b:t=V&colon;S&colon;	!	!	!	!
8gg'</	.	.	16bb-/LL	.	.	.	.	.	.	.	.	4f/	-wej	.	.	4b-/ 4g/	-wej	-bil	.	.
*	*	*	*	*	*	*	*	*	*	*	*	*	*Xij	*	*	*	*	*	*	*
.	.	.	16ddd/	.	.	.	.	.	.	.	.	.	.	.	.	.	.	.	.	.
8cc'</J	.	.	16ccc/	.	.	.	.	.	.	.	.	.	.	.	.	.	.	.	.	.
!	!	!	!LO:TX:b:t=V&colon;S&colon;	!	!	!	!	!	!	!	!	!	!	!	!	!	!	!	!	!
.	.	.	16bb-/JJ)	.	.	.	.	.	.	.	.	.	.	.	.	.	.	.	.	.
!!LO:PB:g=original
=12	=12	=12	=12	=12	=12	=12	=12	=12	=12	=12	=12	=12	=12	=12	=12	=12	=12	=12	=12	=12
*	*	*	*	*	*	*	*	*	*	*	*	*	*	*	*	*^	*	*	*	*
8aa'</L	1f\]	.	(16ccc\LL	.	1r	.	.	1r	.	.	.	2f/	fa-	.	.	2cc/	2a\	fa-	e-	.	1ryy
.	.	.	16ddd\	.	.	.	.	.	.	.	.	.	.	.	.	.	.	.	.	.	.
8cc'</	.	.	16ccc\	.	.	.	.	.	.	.	.	.	.	.	.	.	.	.	.	.	.
.	.	.	16ddd\JJ	.	.	.	.	.	.	.	.	.	.	.	.	.	.	.	.	.	.
8aa'</	.	.	16ccc\LL	.	.	.	.	.	.	.	.	.	.	.	.	.	.	.	.	.	.
.	.	.	16ddd\	.	.	.	.	.	.	.	.	.	.	.	.	.	.	.	.	.	.
8cc'</J	.	.	16ccc\	.	.	.	.	.	.	.	.	.	.	.	.	.	.	.	.	.	.
.	.	.	16ddd\JJ	.	.	.	.	.	.	.	.	.	.	.	.	.	.	.	.	.	.
*	*	*	*	*	*	*	*	*	*	*	*	*	*ij	*	*	*	*	*	*	*	*
8aa'</L	.	.	16ccc\LL	.	.	.	.	.	.	.	.	8f/	-li,	.	.	8a/	8a\	-li,	-tra	.	.
.	.	.	16ddd\	.	.	.	.	.	.	.	.	.	.	.	.	.	.	.	.	.	.
8cc'</J	.	.	16ccc\	.	.	.	.	.	.	.	.	8r	.	.	.	8r	8ryy	.	.	.	.
.	.	.	16ddd\JJ	.	.	.	.	.	.	.	.	.	.	.	.	.	.	.	.	.	.
8aa-X'</L	.	.	16ccc\LL	.	.	.	.	.	.	.	.	4f/	przez	.	.	8cc/L	4a-X\	przez	per-	.	.
.	.	.	16ddd\	.	.	.	.	.	.	.	.	.	.	.	.	.	.	.	.	.	.
8ff'</J	.	.	16ccc\	.	.	.	.	.	.	.	.	.	.	.	.	8dd/J	.	.	.	.	.
.	.	.	16ddd\JJ	.	.	.	.	.	.	.	.	.	.	.	.	.	.	.	.	.	.
*v	*v	*	*	*	*	*	*	*	*	*	*	*	*	*	*	*	*	*	*	*	*
=13	=13	=13	=13	=13	=13	=13	=13	=13	=13	=13	=13	=13	=13	=13	=13	=13	=13	=13	=13	=13
!	!	!	!	!	!	!	!	!	!	!	!	!	!	!	!LO:S:color=grey	!	!	!	!	!
8gg'\L	.	16eee\LL	.	1r	.	.	1r	.	.	.	2c/	wiecz-	.	.	((2ee/ 2g/	2ryy	wiecz-	-cor-	.	1ryy
.	.	16ddd\	.	.	.	.	.	.	.	.	.	.	.	.	.	.	.	.	.	.
8cc'\	.	16eee\	.	.	.	.	.	.	.	.	.	.	.	.	.	.	.	.	.	.
.	.	16ddd\JJ	.	.	.	.	.	.	.	.	.	.	.	.	.	.	.	.	.	.
8gg'\	.	16eee\LL	.	.	.	.	.	.	.	.	.	.	.	.	.	.	.	.	.	.
.	.	16ddd\	.	.	.	.	.	.	.	.	.	.	.	.	.	.	.	.	.	.
8cc'\J	.	16eee\	.	.	.	.	.	.	.	.	.	.	.	.	.	.	.	.	.	.
.	.	16ddd\JJ	.	.	.	.	.	.	.	.	.	.	.	.	.	.	.	.	.	.
8gg'\L	.	16eee\LL	.	.	.	.	.	.	.	.	8c/	-ne	.	.	8cc/))	8cc\	-ne	-re	.	.
.	.	16ddd\	.	.	.	.	.	.	.	.	.	.	.	.	.	.	.	.	.	.
8cc'\	.	16eee\	.	.	.	.	.	.	.	.	8r	.	.	.	8r	8ryy	.	.	.	.
.	.	16ddd\JJ	.	.	.	.	.	.	.	.	.	.	.	.	.	.	.	.	.	.
8aa-X'\	.	16ccc\LL	.	.	.	.	.	.	.	.	4f/	bez-	.	.	8cc/L	4a-X\	bez-	un`-	.	.
.	.	16ddd\	.	.	.	.	.	.	.	.	.	.	.	.	.	.	.	.	.	.
8ff'\J	.	16ccc\	.	.	.	.	.	.	.	.	.	.	.	.	8dd/J	.	.	.	.	.
.	.	16ddd\JJ	.	.	.	.	.	.	.	.	.	.	.	.	.	.	.	.	.	.
=14	=14	=14	=14	=14	=14	=14	=14	=14	=14	=14	=14	=14	=14	=14	=14	=14	=14	=14	=14	=14
*	*	*	*	*	*	*	*	*	*	*	*	*	*	*	*	*^	*	*	*	*
*	*	*	*	*	*	*	*	*	*	*	*^	*	*	*	*	*	*	*	*	*	*
*rep	*	*	*	*	*	*	*	*	*	*	*	*	*	*	*	*	*	*	*	*	*	*
!	!	!	!	!	!	!	!	!	!	!	!	!	!	!	!	!LO:S:color=grey	!	!	!	!	!	!
8gg'\L	.	16eee\LL	.	1r	.	.	1r	.	.	.	2c/	2.ryy	-dro-	.	.	((2ee/ 2g/	2ryy	2.ryy	-dro-	-or-	.	1ryy
.	.	16ddd\	.	.	.	.	.	.	.	.	.	.	.	.	.	.	.	.	.	.	.	.
8cc'\	.	16eee\	.	.	.	.	.	.	.	.	.	.	.	.	.	.	.	.	.	.	.	.
.	.	16ddd\JJ	.	.	.	.	.	.	.	.	.	.	.	.	.	.	.	.	.	.	.	.
8gg'\	.	16eee\LL	.	.	.	.	.	.	.	.	.	.	.	.	.	.	.	.	.	.	.	.
.	.	16ddd\	.	.	.	.	.	.	.	.	.	.	.	.	.	.	.	.	.	.	.	.
8cc'\J	.	16eee\	.	.	.	.	.	.	.	.	.	.	.	.	.	.	.	.	.	.	.	.
.	.	16ddd\JJ	.	.	.	.	.	.	.	.	.	.	.	.	.	.	.	.	.	.	.	.
8gg'\L	.	16eee\LL	.	.	.	.	.	.	.	.	8c/	.	-że,	.	.	8cc/))	8cc\	.	-że,	-be	.	.
.	.	16ddd\	.	.	.	.	.	.	.	.	.	.	.	.	.	.	.	.	.	.	.	.
8cc'\	.	16eee\	.	.	.	.	.	.	.	.	8r	.	.	.	.	8r	8ryy	.	.	.	.	.
.	.	16ddd\JJ	.	.	.	.	.	.	.	.	.	.	.	.	.	.	.	.	.	.	.	.
8aa-X'\	.	16ccc\LL	.	.	.	.	.	.	.	.	4f/	8f/@	przez/	.	.	8cc/L	4a-X\	8a-X\@	przez	per	.	.
.	.	16ddd\	.	.	.	.	.	.	.	.	.	.	.	.	.	.	.	.	.	.	.	.
8ff'\J	.	16ccc\	.	.	.	.	.	.	.	.	.	8f/@	.	.	.	8dd/J	.	8a-\@	.	.	.	.
.	.	16ddd\JJ)	.	.	.	.	.	.	.	.	.	.	.	.	.	.	.	.	.	.	.	.
*Xrep	*	*	*	*	*	*	*	*	*	*	*	*	*	*	*	*	*	*	*	*	*	*
*	*	*	*	*	*	*	*	*	*	*	*v	*v	*	*	*	*	*	*	*	*	*	*
*	*	*	*	*	*	*	*	*	*	*	*	*	*	*	*	*v	*v	*	*	*	*
!!LO:LB:g=original
=15	=15	=15	=15	=15	=15	=15	=15	=15	=15	=15	=15	=15	=15	=15	=15	=15	=15	=15	=15	=15
*	*	*	*	*	*	*	*	*	*	*	*	*	*	*	*	*	*color:red	*color:auto	*	*
8gg\L	.	(16eee\LL	.	1r	.	.	1r	.	.	.	4c/	wiecz-	.	.	4ee/	4g\	cor-	wiecz-	.	1ryy
.	.	16ddd\	.	.	.	.	.	.	.	.	.	.	.	.	.	.	.	.	.	.
8cc\	.	16eee\	.	.	.	.	.	.	.	.	.	.	.	.	.	.	.	.	.	.
.	.	16ddd\JJ	.	.	.	.	.	.	.	.	.	.	.	.	.	.	.	.	.	.
8aa-X\	.	16ccc\LL	.	.	.	.	.	.	.	.	4f/	-/ne	.	.	8cc/L	4a-X\	-re	-ne	.	.
.	.	16ddd\	.	.	.	.	.	.	.	.	.	.	.	.	.	.	.	.	.	.
8ff\J	.	16ccc\	.	.	.	.	.	.	.	.	.	.	.	.	8dd/J	.	un	.	.	.
.	.	16ddd\JJ	.	.	.	.	.	.	.	.	.	.	.	.	.	.	.	.	.	.
*rep	*	*	*	*	*	*	*	*	*	*	*	*	*	*	*	*	*	*	*	*
!	!	!	!	!	!	!	!	!	!	!	!LO:S:color=grey	!	!	!	!LO:S:color=grey	!LO:S:color=grey	!	!	!	!
8gg\L	.	16eee\LL	.	.	.	.	.	.	.	.	(4c/	le-	.	.	(4ee/	(4g\	or-	le-	.	.
.	.	16ddd\	.	.	.	.	.	.	.	.	.	.	.	.	.	.	.	.	.	.
8cc\	.	16eee\	.	.	.	.	.	.	.	.	.	.	.	.	.	.	.	.	.	.
.	.	16ddd\JJ	.	.	.	.	.	.	.	.	.	.	.	.	.	.	.	.	.	.
8aa-\	.	16ccc\LL	.	.	.	.	.	.	.	.	8.f/)	-cąc	.	.	8.cc/)	8.a-\)	-be in-	-cąc	.	.
.	.	16ddd\	.	.	.	.	.	.	.	.	.	.	.	.	.	.	.	.	.	.
8ff\J	.	16ccc\	.	.	.	.	.	.	.	.	.	.	.	.	.	.	.	.	.	.
.	.	16ddd\JJ	.	.	.	.	.	.	.	.	16f/	bez-	.	.	16cc/	16f\	-fi-	bez-	.	.
*Xrep	*	*	*	*	*	*	*	*	*	*	*	*	*	*	*	*	*	*	*	*
=16	=16	=16	=16	=16	=16	=16	=16	=16	=16	=16	=16	=16	=16	=16	=16	=16	=16	=16	=16	=16
*tremolo	*	*	*	*	*	*	*	*	*	*	*	*	*	*	*	*	*	*	*	*
8gg\L	.	16eee\LL	.	1r	.	.	1r	.	.	.	2.e/	-dro-	.	.	2.ee/	2.e\	-ni-	-dro-	.	1ryy
.	.	16ddd#X\	.	.	.	.	.	.	.	.	.	.	.	.	.	.	.	.	.	.
8cc\	.	16eee\	.	.	.	.	.	.	.	.	.	.	.	.	.	.	.	.	.	.
.	.	16ddd#\JJ	.	.	.	.	.	.	.	.	.	.	.	.	.	.	.	.	.	.
8gg\	.	16eee\LL	.	.	.	.	.	.	.	.	.	.	.	.	.	.	.	.	.	.
.	.	16ddd#\	.	.	.	.	.	.	.	.	.	.	.	.	.	.	.	.	.	.
8cc\J	.	16eee\	.	.	.	.	.	.	.	.	.	.	.	.	.	.	.	.	.	.
.	.	16ddd#\JJ	.	.	.	.	.	.	.	.	.	.	.	.	.	.	.	.	.	.
8gg#X\L	.	16eee\LL	.	.	.	.	.	.	.	.	.	.	.	.	.	.	.	.	.	.
.	.	16ddd#\	.	.	.	.	.	.	.	.	.	.	.	.	.	.	.	.	.	.
8cc\	.	16eee\	.	.	.	.	.	.	.	.	.	.	.	.	.	.	.	.	.	.
.	.	16ddd#\JJ	.	.	.	.	.	.	.	.	.	.	.	.	.	.	.	.	.	.
!	!	!	!	!	!	!	!	!	!	!	!LO:T:color=grey	!	!	!	!LO:T:color=grey	!	!	!	!	!
8gg#\	.	16eee\LL	.	.	.	.	.	.	.	.	[4e/	-że,	.	.	[4ee/	4e\	-ta,	-że,	.	.
*	*	*	*	*	*	*	*	*	*	*	*	*Xij	*ij	*	*	*	*	*	*	*
.	.	16ddd#\	.	.	.	.	.	.	.	.	.	.	.	.	.	.	.	.	.	.
8cc\J	.	16eee\	.	.	.	.	.	.	.	.	.	.	.	.	.	.	.	.	.	.
.	.	16ddd#\JJ	.	.	.	.	.	.	.	.	.	.	.	.	.	.	.	.	.	.
*	*	*	*	*	*	*	*	*	*	*	*	*	*	*	*v	*v	*	*	*	*
=17	=17	=17	=17	=17	=17	=17	=17	=17	=17	=17	=17	=17	=17	=17	=17	=17	=17	=17	=17
*	*	*	*	*	*	*	*2\right	*color:red	*	*	*	*color:red	*	*	*	*	*	*	*
!	!	!	!	!	!	!	!	!	!	!LO:DY:rj	!	!	!	!	!	!	!	!	!
8aa\L 8ee\ 8cc#X\	.	16eee\LL	.	1r	.	.	2.c#X\	sen-	Tak	pp	2.e/]	sen-	pośród	.	2.ee\]	sen-	po-	.	1ryy
.	.	16fff#X\	.	.	.	.	.	.	.	.	.	.	.	.	.	.	.	.	.
8a\	.	16eee\	.	.	.	.	.	.	.	.	.	.	.	.	.	.	.	.	.
.	.	16fff#\JJ	.	.	.	.	.	.	.	.	.	.	.	.	.	.	.	.	.
8aa\ 8ee\ 8cc#\	.	16eee\LL	.	.	.	.	.	.	.	.	.	.	.	.	.	.	.	.	.
.	.	16fff#\	.	.	.	.	.	.	.	.	.	.	.	.	.	.	.	.	.
8a\	.	16eee\	.	.	.	.	.	.	.	.	.	.	.	.	.	.	.	.	.
.	.	16fff#\JJ	.	.	.	.	.	.	.	.	.	.	.	.	.	.	.	.	.
8aa\ 8ee\ 8cc#\	.	16eee\LL	.	.	.	.	.	.	.	.	.	.	.	.	.	.	.	.	.
.	.	16fff#\	.	.	.	.	.	.	.	.	.	.	.	.	.	.	.	.	.
8a\J	.	16eee\	.	.	.	.	.	.	.	.	.	.	.	.	.	.	.	.	.
.	.	16fff#\JJ	.	.	.	.	.	.	.	.	.	.	.	.	.	.	.	.	.
!	!	!	!	!	!	!	!	!	!	!	!LO:T:color=grey	!	!	!	!	!	!	!	!
8gg#X\L 8ee\	.	16ddd\LL	.	.	.	.	8.Bn\	-za	śród	.	[4e/	-za	pierz	.	8.dd\	-za	śród	.	.
.	.	16eee\	.	.	.	.	.	.	.	.	.	.	.	.	.	.	.	.	.
8a\J	.	16ddd\	.	.	.	.	.	.	.	.	.	.	.	.	.	.	.	.	.
.	.	16eee\JJ)	.	.	.	.	16B\	ri-	pierzch-	.	.	.	.	.	16dd\	ri	pierzch	.	.
!!LO:PB:g=original
=18	=18	=18	=18	=18	=18	=18	=18	=18	=18	=18	=18	=18	=18	=18	=18	=18	=18	=18	=18
*	*	*	*	*	*	*	*	*	*	*	*	*	*	*	*^	*	*	*	*
*	*	*	*	*	*	*	*^	*	*	*	*	*	*	*	*	*	*	*	*	*
*	*	*	*	*	*	*	*	*	*	*	*	*	*	*Xij	*	*	*	*color:auto	*color:red	*	*
8aa\L 8ee\	.	(16ccc#X\LL	.	1r	.	.	2.A\	2.ryy	-star	-li-	.	2.e/]	ri-	li-	.	2.cc#X\	2.ryy	li-	star.....	.	1ryy
.	.	16ddd\	.	.	.	.	.	.	.	.	.	.	.	.	.	.	.	.	.	.	.
8a\	.	16ccc#\	.	.	.	.	.	.	.	.	.	.	.	.	.	.	.	.	.	.	.
.	.	16ddd\JJ	.	.	.	.	.	.	.	.	.	.	.	.	.	.	.	.	.	.	.
8aa\ 8ee\	.	16ccc#\LL	.	.	.	.	.	.	.	.	.	.	.	.	.	.	.	.	.	.	.
.	.	16ddd\	.	.	.	.	.	.	.	.	.	.	.	.	.	.	.	.	.	.	.
8a\	.	16ccc#\	.	.	.	.	.	.	.	.	.	.	.	.	.	.	.	.	.	.	.
.	.	16ddd\JJ	.	.	.	.	.	.	.	.	.	.	.	.	.	.	.	.	.	.	.
8aa\ 8ee\	.	16ccc#\LL	.	.	.	.	.	.	.	.	.	.	.	.	.	.	.	.	.	.	.
.	.	16ddd\	.	.	.	.	.	.	.	.	.	.	.	.	.	.	.	.	.	.	.
8a\J	.	16ccc#\	.	.	.	.	.	.	.	.	.	.	.	.	.	.	.	.	.	.	.
.	.	16ddd\JJ	.	.	.	.	.	.	.	.	.	.	.	.	.	.	.	.	.	.	.
*Xtremolo	*	*	*	*	*	*	*	*	*	*	*	*	*	*	*	*	*	*	*	*	*
!	!	!	!	!	!	!	!	!	!	!	!	!	!	!	!	!LO:ACC:color=grey	!LO:ACC:color=grey	!	!	!	!
8ee\L	.	16bbn\LL	.	.	.	.	4d\	8.d\@	co-	-wej,	.	8.e/	-star	-wej	.	4bn\	8.bn\@	-wej,	co-	.	.
.	.	16ccc#\	.	.	.	.	.	.	.	.	.	.	.	.	.	.	.	.	.	.	.
8a\J	.	16bb\	.	.	.	.	.	.	.	.	.	.	.	.	.	.	.	.	.	.	.
.	.	16ccc#\JJ	.	.	.	.	.	16d\@	.	.	.	16e/	co-	tak	.	.	16b\@	.	.	.	.
*	*	*	*	*	*	*	*v	*v	*	*	*	*	*	*	*	*	*	*	*	*	*
*	*	*	*	*	*	*	*	*	*	*	*	*	*	*	*v	*v	*	*	*	*
=19	=19	=19	=19	=19	=19	=19	=19	=19	=19	=19	=19	=19	=19	=19	=19	=19	=19	=19	=19
8ee\L	.	16aa\LL	.	1r	.	.	8c#X\	-si	śród	.	8e/	-sì	śród	.	8a\	śród	-sì	.	1ryy
.	.	16ccc#X\	.	.	.	.	.	.	.	.	.	.	.	.	.	.	.	.	.
8a\	.	16bbn\	.	.	.	.	8r	.	.	.	8r	.	.	.	8r	.	.	.	.
.	.	16aa\JJ	.	.	.	.	.	.	.	.	.	.	.	.	.	.	.	.	.
*	*	*	*	*	*	*	*	*	*ij	*	*	*	*ij	*	*	*	*	*	*
8ee\	.	16bb\LL	.	.	.	.	8e\	d`in-	pierz-	.	8e/	d`in-	pierz-	.	8bn\ 8g#X\	pierz-	d`in-	.	.
.	.	16ddd\	.	.	.	.	.	.	.	.	.	.	.	.	.	.	.	.	.
8e\J	.	16ccc#\	.	.	.	.	8r	.	.	.	8r	.	.	.	8r	.	.	.	.
.	.	16bb\JJ	.	.	.	.	.	.	.	.	.	.	.	.	.	.	.	.	.
8ee\L	.	16ccc#\LL	.	.	.	.	8A/	-sta-	-chli-	.	8e/	-sta-	-chli-	.	8cc#X\ 8a\	-chli-	-sta-	.	.
.	.	16eee\	.	.	.	.	.	.	.	.	.	.	.	.	.	.	.	.	.
8a\	.	16ddd\	.	.	.	.	8r	.	.	.	8r	.	.	.	8r	.	.	.	.
.	.	16ccc#\JJ	.	.	.	.	.	.	.	.	.	.	.	.	.	.	.	.	.
8ee\	.	16ddd\LL	.	.	.	.	8A/	-bil	-wej	.	8e/	-bil	-wej	.	8dd\ 8bn\	-wej	-bil	.	.
.	.	16fff#X\	.	.	.	.	.	.	.	.	.	.	.	.	.	.	.	.	.
8a\J	.	16eee\	.	.	.	.	8r	.	.	.	8r	.	.	.	8r	.	.	.	.
.	.	16ddd\JJ	.	.	.	.	.	.	.	.	.	.	.	.	.	.	.	.	.
*	*	*	*	*	*	*	*	*	*	*	*	*ij	*Xij	*	*	*	*	*	*
=20	=20	=20	=20	=20	=20	=20	=20	=20	=20	=20	=20	=20	=20	=20	=20	=20	=20	=20	=20
*tremolo	*	*	*	*	*	*	*	*	*	*	*	*color:auto	*color:red	*	*	*	*	*	*
8ccc#X\L 8ee\	.	16eee\LL	.	1r	.	.	2A/	e-	fa-	.	2e/	fa-	e-	.	2ee\ 2cc#X\	fa-	e-	.	1ryy
.	.	16fff#X\	.	.	.	.	.	.	.	.	.	.	.	.	.	.	.	.	.
8a\	.	16eee\	.	.	.	.	.	.	.	.	.	.	.	.	.	.	.	.	.
.	.	16fff#\JJ	.	.	.	.	.	.	.	.	.	.	.	.	.	.	.	.	.
8ccc#\ 8ee\	.	16eee\LL	.	.	.	.	.	.	.	.	.	.	.	.	.	.	.	.	.
.	.	16fff#\	.	.	.	.	.	.	.	.	.	.	.	.	.	.	.	.	.
8a\J	.	16eee\	.	.	.	.	.	.	.	.	.	.	.	.	.	.	.	.	.
.	.	16fff#\JJ	.	.	.	.	.	.	.	.	.	.	.	.	.	.	.	.	.
*Xtremolo	*	*	*	*	*	*	*	*	*	*	*	*	*	*	*	*	*	*	*
8aa\L 8ee\	.	16eee\LL	.	.	.	.	8A/	-tra	-li,	.	8a/	-li,	-tra	.	8ee\ 8cc#\	-li,	-tra,	.	.
.	.	16fff#\	.	.	.	.	.	.	.	.	.	.	.	.	.	.	.	.	.
8a\J	.	16eee\	.	.	.	.	8r	.	.	.	8r	.	.	.	8r	.	.	.	.
.	.	16fff#\JJ	.	.	.	.	.	.	.	.	.	.	.	.	.	.	.	.	.
!LO:TX:b:i:t=D:color=grey	!	!	!	!	!	!	!	!	!	!	!	!	!	!	!	!	!	!	!
8aa\L 8dd\	.	16eee\LL	.	.	.	.	8d\	.	a-	.	8a/	a-	ri-	.	8ee\ 8ccn\	a-	ri-	.	.
.	.	16fff#\	.	.	.	.	.	.	.	.	.	.	.	.	.	.	.	.	.
8dd\J	.	16eee\	.	.	.	.	8d\	.	-ni	.	8a/	-ni/	-per	.	8ff#X\ 8cc\	-ni	-per	.	.
.	.	16fff#\JJ)	.	.	.	.	.	.	.	.	.	.	.	.	.	.	.	.	.
!!LO:LB:g=original
=21	=21	=21	=21	=21	=21	=21	=21	=21	=21	=21	=21	=21	=21	=21	=21	=21	=21	=21	=21
*	*	*	*	*	*	*	*	*	*	*	*	*Xij	*	*	*	*	*	*	*
*tremolo	*	*	*	*	*	*	*	*color:auto	*	*	*	*color:red	*color:auto	*	*	*color:red	*color:auto	*	*
!	!	!	!	!	!	!	!LO:T:color=grey	!	!	!	!LO:T:color=grey	!	!	!	!LO:S:color=grey	!	!	!	!
8bbn\L 8dd\	.	(16ggg\LL	.	1r	.	.	[2d\	wzbić	.	.	[2g/	cor-	wzbić	.	(2gg\ (2bn\	cor-	wzbić	.	1ryy
.	.	16fff#X\	.	.	.	.	.	.	.	.	.	.	.	.	.	.	.	.	.
8g\	.	16ggg\	.	.	.	.	.	.	.	.	.	.	.	.	.	.	.	.	.
.	.	16fff#\JJ	.	.	.	.	.	.	.	.	.	.	.	.	.	.	.	.	.
8bb\ 8dd\	.	16ggg\LL	.	.	.	.	.	.	.	.	.	.	.	.	.	.	.	.	.
.	.	16fff#\	.	.	.	.	.	.	.	.	.	.	.	.	.	.	.	.	.
8g\	.	16ggg\	.	.	.	.	.	.	.	.	.	.	.	.	.	.	.	.	.
.	.	16fff#\JJ	.	.	.	.	.	.	.	.	.	.	.	.	.	.	.	.	.
*	*	*	*	*	*	*	*	*ij	*	*	*	*	*ij	*	*	*	*	*	*
8bb\ 8dd\	.	16ggg\LL	.	.	.	.	8d'\]	się	.	.	8g/]	-re	się	.	8dd\) 8b\)	-re	się	.	.
.	.	16ddd\	.	.	.	.	.	.	.	.	.	.	.	.	.	.	.	.	.
8g\J	.	16bbn\	.	.	.	.	8r	.	.	.	8r	.	.	.	8r	.	.	.	.
.	.	16ccc\JJ	.	.	.	.	.	.	.	.	.	.	.	.	.	.	.	.	.
*Xtremolo	*	*	*	*	*	*	*	*	*	*	*	*	*	*	*	*	*	*	*
8aa'\L	.	16ddd\LL	.	.	.	.	8.d\	pod	.	.	8.a/	sempre	pod	.	8.ee\ 8.cc\	sempre	pod	.	.
.	.	16ddd#X\	.	.	.	.	.	.	.	.	.	.	.	.	.	.	.	.	.
8dd'\J	.	16eee\	.	.	.	.	.	.	.	.	.	.	.	.	.	.	.	.	.
.	.	16fff#\JJ)	.	.	.	.	16d\	nie-	.	.	16a/	un`	nie-	.	16ff#X\ 16cc\	un`	nie-	.	.
=22	=22	=22	=22	=22	=22	=22	=22	=22	=22	=22	=22	=22	=22	=22	=22	=22	=22	=22	=22
*tremolo	*	*	*	*	*	*	*	*	*	*	*	*	*	*	*	*	*	*	*
8bbn\L 8dd\	.	(16ggg\LL	.	1r	.	.	2d\	-bio-	.	.	2g/	or-	-bio-	.	2gg\ 2bn\	or-	-bio-	.	1ryy
.	.	16fff#X\	.	.	.	.	.	.	.	.	.	.	.	.	.	.	.	.	.
8g\	.	16ggg\	.	.	.	.	.	.	.	.	.	.	.	.	.	.	.	.	.
.	.	16fff#\JJ	.	.	.	.	.	.	.	.	.	.	.	.	.	.	.	.	.
8bb\ 8dd\	.	16ggg\LL	.	.	.	.	.	.	.	.	.	.	.	.	.	.	.	.	.
.	.	16fff#\	.	.	.	.	.	.	.	.	.	.	.	.	.	.	.	.	.
8g\J	.	16ggg\	.	.	.	.	.	.	.	.	.	.	.	.	.	.	.	.	.
.	.	16fff#\JJ	.	.	.	.	.	.	.	.	.	.	.	.	.	.	.	.	.
*Xtremolo	*	*	*	*	*	*	*	*	*	*	*	*	*	*	*	*	*	*	*
8gg\L 8dd\	.	16ggg\LL	.	.	.	.	8g\	-sa,	.	.	8g/	-be	-sa,	.	8dd\ 8b\	-be	-sa,	.	.
.	.	16ddd\	.	.	.	.	.	.	.	.	.	.	.	.	.	.	.	.	.
8g\J	.	16bb-\	.	.	.	.	8r	.	.	.	8r	.	.	.	8r	.	.	.	.
.	.	16ccc\JJ	.	.	.	.	.	.	.	.	.	.	.	.	.	.	.	.	.
*	*	*	*	*	*	*	*	*	*	*	*	*	*	*	*	*color:auto	*color:red	*	*
8bb-X\L 8gg\	.	16ccc#X\LL	.	.	.	.	8.c\	a-	.	.	8.e/	in-	a-	.	8.dd\ 8.b-X\	a-	in-	.	.
.	.	16ddd\	.	.	.	.	.	.	.	.	.	.	.	.	.	.	.	.	.
8cc\J	.	16ddd#X\	.	.	.	.	.	.	.	.	.	.	.	.	.	.	.	.	.
.	.	16eee\JJ)	.	.	.	.	16c\	-ni	.	.	16g/	-fi-	-ni	.	16ee\ 16b-\	-ni	-fi-	.	.
=23	=23	=23	=23	=23	=23	=23	=23	=23	=23	=23	=23	=23	=23	=23	=23	=23	=23	=23	=23
*tremolo	*	*	*	*	*	*	*	*	*	*	*	*	*	*	*	*	*	*	*
8aa\L 8cc\	.	(16fff\LL	.	1r	.	.	2c\	do-	.	.	2f/	-ni-	do-	.	2ff\ 2a\	do-	-ni-	.	1ryy
.	.	16eee\	.	.	.	.	.	.	.	.	.	.	.	.	.	.	.	.	.
8f\	.	16fff\	.	.	.	.	.	.	.	.	.	.	.	.	.	.	.	.	.
.	.	16eee\JJ	.	.	.	.	.	.	.	.	.	.	.	.	.	.	.	.	.
8aa\ 8cc\	.	16fff\LL	.	.	.	.	.	.	.	.	.	.	.	.	.	.	.	.	.
.	.	16eee\	.	.	.	.	.	.	.	.	.	.	.	.	.	.	.	.	.
8f\	.	16fff\	.	.	.	.	.	.	.	.	.	.	.	.	.	.	.	.	.
.	.	16eee\JJ	.	.	.	.	.	.	.	.	.	.	.	.	.	.	.	.	.
8aa\ 8cc\	.	16fff\LL	.	.	.	.	8c\	-tknąć,	.	.	8a/	-ta,	-tknąć,	.	8cc\ 8a\	-tknąć,	-ta,	.	.
.	.	16ccc\	.	.	.	.	.	.	.	.	.	.	.	.	.	.	.	.	.
8f\J	.	16aa\	.	.	.	.	8r	.	.	.	8r	.	.	.	8r	.	.	.	.
.	.	16bb-\JJ	.	.	.	.	.	.	.	.	.	.	.	.	.	.	.	.	.
*	*	*	*	*	*	*	*	*	*	*	*	*ij	*	*	*	*	*	*	*
*Xtremolo	*	*	*	*	*	*	*	*	*	*	*	*color:auto	*color:red	*	*	*	*	*	*
8gg\L 8cc\	.	16ccc\LL	.	.	.	.	8.c\	a-	.	.	8.g/	a-	ma	.	8.cc\ 8.b-\	a-	ma	.	.
.	.	16ccc#X\	.	.	.	.	.	.	.	.	.	.	.	.	.	.	.	.	.
8f\J	.	16ddd\	.	.	.	.	.	.	.	.	.	.	.	.	.	.	.	.	.
!	!	!LO:TX:b:t=V&colon;S&colon;	!	!	!	!	!	!	!	!	!	!	!	!	!LO:TX:b:t=V&colon;S&colon;	!	!	!	!
.	.	16eee\JJ)	.	.	.	.	16c\	-ni	.	.	16g/	-ni	tor	.	16cc\ 16b-\	-ni	tor-	.	.
*	*	*	*	*	*	*	*	*Xij	*	*	*	*Xij	*	*	*	*	*	*	*
!!LO:PB:g=original
=24	=24	=24	=24	=24	=24	=24	=24	=24	=24	=24	=24	=24	=24	=24	=24	=24	=24	=24	=24
*	*	*	*	*	*	*	*	*	*	*	*	*	*	*	*^	*	*	*	*
8aa\L 8cc'\	.	(16fff\LL	.	1r	.	.	8c\	zie-	.	.	8f/	zie-	.	.	8ff\ 8a\	2.ryy	zie-	-nar	.	1ryy
.	.	16ccc\	.	.	.	.	.	.	.	.	.	.	.	.	.	.	.	.	.	.
8f'\	.	16aa\	.	.	.	.	8r	.	.	.	8r	.	.	.	8r	.	.	.	.	.
.	.	16bb-\JJ	.	.	.	.	.	.	.	.	.	.	.	.	.	.	.	.	.	.
*	*	*	*	*	*	*	*	*ij	*	*	*	*ij	*	*	*	*	*	*	*	*
8gg\ 8cc'\	.	16ccc\LL	.	.	.	.	8c\	-mi	.	.	8g/	-mi	.	.	8cc\ 8b-\	.	-mi	non	.	.
.	.	16ccc#X\	.	.	.	.	.	.	.	.	.	.	.	.	.	.	.	.	.	.
8f'\J	.	16ddd\	.	.	.	.	8r	.	.	.	8r	.	.	.	8r	.	.	.	.	.
.	.	16eee\JJ	.	.	.	.	.	.	.	.	.	.	.	.	.	.	.	.	.	.
*rep	*	*	*	*	*	*	*	*	*	*	*	*	*	*	*	*	*	*	*	*
8aa\L 8cc'\	.	16fff\LL	.	.	.	.	8c\	tknąć	.	.	8f/	tknąć	.	.	8ff\ 8a\	.	tknąć	puo-	.	.
.	.	16ccc#\	.	.	.	.	.	.	.	.	.	.	.	.	.	.	.	.	.	.
8f'\	.	16aa\	.	.	.	.	8r	.	.	.	8r	.	.	.	8r	.	.	.	.	.
.	.	16bb-\JJ	.	.	.	.	.	.	.	.	.	.	.	.	.	.	.	.	.	.
8gg\ 8cc'\	.	16ccc#\LL	.	.	.	.	8c\	nie	.	.	8g/	nie	.	.	8cc/	8cc\	nie	-te a	.	.
.	.	16ccc#X\	.	.	.	.	.	.	.	.	.	.	.	.	.	.	.	.	.	.
8f'\J	.	16ddd\	.	.	.	.	8r	.	.	.	8r	.	.	.	8r	8ryy	.	.	.	.
.	.	16eee\JJ)	.	.	.	.	.	.	.	.	.	.	.	.	.	.	.	.	.	.
*Xrep	*	*	*	*	*	*	*	*	*	*	*	*	*	*	*	*	*	*	*	*
*	*	*	*	*	*	*	*	*	*	*	*	*	*	*	*v	*v	*	*	*	*
=25	=25	=25	=25	=25	=25	=25	=25	=25	=25	=25	=25	=25	=25	=25	=25	=25	=25	=25	=25
*	*	*	*	*	*	*	*^	*	*	*	*	*	*	*	*	*	*	*	*
*	*	*	*	*	*above	*	*	*	*	*	*	*	*	*	*	*	*	*	*	*
*tremolo	*	*	*	*	*color:red	*	*	*	*	*	*	*	*	*	*	*	*	*	*	*
!	!	!	!	!LO:TX:t=P:problem=2\right&colon; global	!	!	!LO:S:color=red	!	!	!	!	!LO:S:color=red	!	!	!	!	!	!	!	!
!	!	!	!	!	!	!	!LO:T:color=red	!	!	!	!	!	!	!	!	!	!	!	!	!
8a/L 8c/	.	(16fff\LL	.	2.F\	ne` an-	Tak	([2.c/	2.c\	mo-	.	.	(2.a/	mo-	.	.	(2.ff\	mo-	vi-	.	1ryy
.	.	16ggg\	.	.	.	.	.	.	.	.	.	.	.	.	.	.	.	.	.	.
8F/	.	16fff\	.	.	.	.	.	.	.	.	.	.	.	.	.	.	.	.	.	.
.	.	16ggg\JJ	.	.	.	.	.	.	.	.	.	.	.	.	.	.	.	.	.	.
8a/ 8c/	.	16fff\LL	.	.	.	.	.	.	.	.	.	.	.	.	.	.	.	.	.	.
.	.	16ggg\	.	.	.	.	.	.	.	.	.	.	.	.	.	.	.	.	.	.
8F/	.	16fff\	.	.	.	.	.	.	.	.	.	.	.	.	.	.	.	.	.	.
.	.	16ggg\JJ	.	.	.	.	.	.	.	.	.	.	.	.	.	.	.	.	.	.
8a/ 8c/	.	16fff\LL	.	.	.	.	.	.	.	.	.	.	.	.	.	.	.	.	.	.
.	.	16ggg\	.	.	.	.	.	.	.	.	.	.	.	.	.	.	.	.	.	.
8F/J	.	16fff\	.	.	.	.	.	.	.	.	.	.	.	.	.	.	.	.	.	.
.	.	16ggg\JJ	.	.	.	.	.	.	.	.	.	.	.	.	.	.	.	.	.	.
*Xtremolo	*	*	*	*	*	*	*	*	*	*	*	*	*	*	*	*	*	*	*	*
8c/L 8A/	.	16eee\LL	.	8F\	-cor	śród	4c/]	4A\	.	.	.	4cc\	.	.	.	4ee\	-[[że	-ta,	.	.
.	.	16fff\	.	.	.	.	.	.	.	.	.	.	.	.	.	.	.	.	.	.
8F/J	.	16eee\	.	8F\	in	pierz-	.	.	.	.	.	.	.	.	.	.	.	.	.	.
.	.	16fff\JJ	.	.	.	.	.	.	.	.	.	.	.	.	.	.	.	.	.	.
=26	=26	=26	=26	=26	=26	=26	=26	=26	=26	=26	=26	=26	=26	=26	=26	=26	=26	=26	=26	=26
8d/L 8B-/	.	16ddd\LL 16bb-\	.	[1F\	ciel	-chli-	4d/	4B-\	.	.	.	4b-/	.	.	.	(4dd\)	a-	ne` il	.	1ryy
.	.	16eee\	.	.	.	.	.	.	.	.	.	.	.	.	.	.	.	.	.	.
8F/	.	16ddd\ 16bb-\	.	.	.	.	.	.	.	.	.	.	.	.	.	.	.	.	.	.
.	.	16eee\JJ	.	.	.	.	.	.	.	.	.	.	.	.	.	.	.	.	.	.
8e/ 8c/	.	16ccc\LL 16aa\	.	.	.	.	4e/	4c\	.	.	.	4a/	.	.	.	4cc\	-ni	tuo	.	.
.	.	16ddd\	.	.	.	.	.	.	.	.	.	.	.	.	.	.	.	.	.	.
8F/J	.	16ccc\ 16aa\	.	.	.	.	.	.	.	.	.	.	.	.	.	.	.	.	.	.
.	.	16ddd\JJ	.	.	.	.	.	.	.	.	.	.	.	.	.	.	.	.	.	.
8f/L 8d/	.	16bbn\LL 16gg#X\	.	.	.	.	4f/)	4d\	.	.	.	4g#X/)	.	.	.	4bn\)	wzbić	spir-	.	.
.	.	16ccc\	.	.	.	.	.	.	.	.	.	.	.	.	.	.	.	.	.	.
8F/	.	16bb\ 16gg#\	.	.	.	.	.	.	.	.	.	.	.	.	.	.	.	.	.	.
.	.	16ccc\JJ	.	.	.	.	.	.	.	.	.	.	.	.	.	.	.	.	.	.
!	!	!	!	!	!	!	!	!	!	!	!	!	!	!	!	!LO:TX:t=P:problem=sylaba ”że” - czerwona	!	!	!	!
8g/ 8e/	.	16bb-X\LL 16ggn\	.	.	.	.	4e/	4e\	-że	.	.	4gn/	-że/	.	.	4b-X\	się]]-że	-to in	.	.
*	*	*	*	*	*	*	*	*	*Xij	*	*	*	*	*	*	*	*	*	*	*
.	.	16ccc\	.	.	.	.	.	.	.	.	.	.	.	.	.	.	.	.	.	.
8F/J	.	16bb-\ 16gg\	.	.	.	.	.	.	.	.	.	.	.	.	.	.	.	.	.	.
.	.	16ccc\JJ)	.	.	.	.	.	.	.	.	.	.	.	.	.	.	.	.	.	.
!!LO:LB:g=original
=27	=27	=27	=27	=27	=27	=27	=27	=27	=27	=27	=27	=27	=27	=27	=27	=27	=27	=27	=27	=27
8a/L 8f'/	.	(>16aa/LL	.	4F\]	.	.	4f/	4f\	pod	.	.	4f/	pod	.	.	4a\	pod	ciel	.	1ryy
.	.	16bb-/	.	.	.	.	.	.	.	.	.	.	.	.	.	.	.	.	.	.
*	*color:grey	*	*	*	*	*	*	*	*	*	*	*	*	*	*	*	*	*	*	*
8c'/	4	16aa/	.	.	.	.	.	.	.	.	.	.	.	.	.	.	.	.	.	.
.	.	16bb-/JJ	.	.	.	.	.	.	.	.	.	.	.	.	.	.	.	.	.	.
*	*	*	*	*	*	*	*	*	*ij	*	*	*	*ij	*	*	*	*	*	*	*
8g/ 8e/ 8B-'/	.	16gg/LL	.	4B-\	pe-	-wej	4e/	4e\	nie-	.	.	4g/	nie-	.	.	4cc\	nie-	pe-	.	.
.	.	16aa/	.	.	.	.	.	.	.	.	.	.	.	.	.	.	.	.	.	.
8c'/J	.	16gg/	.	.	.	.	.	.	.	.	.	.	.	.	.	.	.	.	.	.
.	.	16aa/JJ	.	.	.	.	.	.	.	.	.	.	.	.	.	.	.	.	.	.
8f/L 8A'/	.	16ff/LL	.	4A\	-ne-	fa-	4f/	4f\	-bio-	.	.	4f/	-bio-	.	.	4cc\	-bio-	-ne-	.	.
.	.	16gg/	.	.	.	.	.	.	.	.	.	.	.	.	.	.	.	.	.	.
8c'/	.	16ff/	.	.	.	.	.	.	.	.	.	.	.	.	.	.	.	.	.	.
.	.	16gg/JJ	.	.	.	.	.	.	.	.	.	.	.	.	.	.	.	.	.	.
8a/ 8A'/	.	16ee/LL	.	4A\	-tra.	-li	4c\	4ryy	-sa,	.	.	4e/	-sa,	.	.	4cc\	-sa,	-tra.	.	.
.	.	16ff/	.	.	.	.	.	.	.	.	.	.	.	.	.	.	.	.	.	.
8c'/J	.	16ee/	.	.	.	.	.	.	.	.	.	.	.	.	.	.	.	.	.	.
.	.	16ff/JJ)	.	.	.	.	.	.	.	.	.	.	.	.	.	.	.	.	.	.
*	*	*	*	*	*	*	*v	*v	*	*	*	*	*	*	*	*	*	*	*	*
=28	=28	=28	=28	=28	=28	=28	=28	=28	=28	=28	=28	=28	=28	=28	=28	=28	=28	=28	=28
4.d/ 4.B-^/	.	(16dd/LL	<	4.B-\	ma	a-	4.d\	a-	.	.	4.d/	a-	.	.	4.cc\	a-	ma	.	1ryy
.	.	16ee/	.	.	.	.	.	.	.	.	.	.	.	.	.	.	.	.	.
.	.	16ff/	.	.	.	.	.	.	.	.	.	.	.	.	.	.	.	.	.
.	.	16gg/JJ	.	.	.	.	.	.	.	.	.	.	.	.	.	.	.	.	.
.	.	16aa\LL	.	.	.	.	.	.	.	.	.	.	.	.	.	.	.	.	.
.	.	16bb-\	.	.	.	.	.	.	.	.	.	.	.	.	.	.	.	.	.
8d/ 8B-/	.	16ccc\	.	8B-\	tor-	-ni	8d\	-ni	.	.	8g/	-ni	.	.	8cc\	-ni	tor-	.	.
.	.	16ddd\JJ	[	.	.	.	.	.	.	.	.	.	.	.	.	.	.	.	.
*tremolo	*	*	*	*	*	*ij	*	*	*	*	*	*	*	*	*	*	*	*	*
!LO:TX:b:t=....	!	!	!	!	!	!	!	!	!	!	!	!	!	!	!	!	!	!	!
8g/L 8c/ 8B-'/	.	16eee\LL	>	4.B-\	-nar	zie-	4.e\	zie-	.	.	4.g/	zie-	.	.	4.cc\	zie-	-nar	.	.
.	.	16ddd\	.	.	.	.	.	.	.	.	.	.	.	.	.	.	.	.	.
8g/ 8c/ 8B-'/	.	16ccc\	.	.	.	.	.	.	.	.	.	.	.	.	.	.	.	.	.
.	.	16bb-\JJ	.	.	.	.	.	.	.	.	.	.	.	.	.	.	.	.	.
8g/ 8c/ 8B-'/	.	16aa/LL	.	.	.	.	.	.	.	.	.	.	.	.	.	.	.	.	.
.	.	16gg/	.	.	.	.	.	.	.	.	.	.	.	.	.	.	.	.	.
8g/J 8c/ 8B-'/	.	16ff/	.	8B-\	non	-mi	8e\	-mi	.	.	8g/	-mi	.	.	8cc\	-mi	non	.	.
.	.	16ee/JJ)	]	.	.	.	.	.	.	.	.	.	.	.	.	.	.	.	.
*Xtremolo	*	*	*	*	*	*	*	*	*	*	*	*	*	*	*	*	*	*	*
=29	=29	=29	=29	=29	=29	=29	=29	=29	=29	=29	=29	=29	=29	=29	=29	=29	=29	=29	=29
*	*	*	*	*	*	*	*	*	*	*	*	*	*	*	*^	*	*	*	*
*	*	*	*	*	*	*	*	*	*	*	*^	*	*	*	*	*	*	*	*	*
*	*	*	*	*	*	*	*^	*	*	*	*	*	*	*	*	*	*	*	*	*	*
*	*	*	*	*^	*	*	*	*	*	*	*	*	*	*	*	*	*	*	*	*	*	*
4.f/ 4.c/ 4.A/	.	16ff/LL	<	4.A\	2ryy	puo-	tknąć	4.f\	2ryy	tknąć	.	.	4.f/	2ryy	tknąć	.	.	4.cc\	2ryy	tknąć	puo-	.	1ryy
.	.	16gg/	.	.	.	.	.	.	.	.	.	.	.	.	.	.	.	.	.	.	.	.	.
.	.	16aa/	.	.	.	.	.	.	.	.	.	.	.	.	.	.	.	.	.	.	.	.	.
.	.	16bb-/JJ	.	.	.	.	.	.	.	.	.	.	.	.	.	.	.	.	.	.	.	.	.
.	.	16ccc\LL	.	.	.	.	.	.	.	.	.	.	.	.	.	.	.	.	.	.	.	.	.
.	.	16ddd\	.	.	.	.	.	.	.	.	.	.	.	.	.	.	.	.	.	.	.	.	.
*clefF4	*	*	*	*	*	*	*	*	*	*	*	*	*	*	*	*	*	*	*	*	*	*	*
8c\ 8A\ 8F\	.	16eee\	.	8F\	.	-te a	nie	8c\	.	nie	.	.	8a/	.	nie	.	.	8cc\	.	nie	-te a	.	.
.	.	16fff\JJ	.	.	.	.	.	.	.	.	.	.	.	.	.	.	.	.	.	.	.	.	.
8c\L 8E\	.	16ggg\LL	.	4E\	8E\@	vi-	mo-	4c\	8c\@	mo-	.	.	4g/	8g/@	mo-	.	.	4cc\	8cc\@	mo-	vi-	.	.
.	.	16fff\	.	.	.	.	.	.	.	.	.	.	.	.	.	.	.	.	.	.	.	.	.
8c\ 8G\	.	16eee\	.	.	8r@	.	.	.	8r@	.	.	.	.	8r@	.	.	.	.	8r@	.	.	.	.
.	.	16ddd\JJ	.	.	.	.	.	.	.	.	.	.	.	.	.	.	.	.	.	.	.	.	.
8c\ 8E\	.	16ccc\LL	.	8C/	4ryy	-ta	- że/	8c\	4ryy	-że	.	.	8c/	4ryy	-że	.	.	8cc\	4ryy	-że,	-ta	.	.
.	.	16aa\	.	.	.	.	.	.	.	.	.	.	.	.	.	.	.	.	.	.	.	.	.
8c\J 8C\	.	16bb-\	.	8r	.	.	.	8r	.	.	.	.	8r	.	.	.	.	8r	.	.	.	.	.
.	.	16ccc\JJ	[[	.	.	.	.	.	.	.	.	.	.	.	.	.	.	.	.	.	.	.	.
*	*	*X8va	*	*	*	*	*	*	*	*	*	*	*	*	*	*	*	*	*	*	*	*	*
*	*	*	*	*v	*v	*	*	*	*	*	*	*	*	*	*	*	*	*	*	*	*	*	*
*	*	*	*	*	*	*	*v	*v	*	*	*	*	*	*	*	*	*	*	*	*	*	*
*	*	*	*	*	*	*	*	*	*	*	*v	*v	*	*	*	*	*	*	*	*	*
*	*	*	*	*	*	*	*	*	*	*	*	*	*	*	*v	*v	*	*	*	*
!!LO:PB:g=original
=30	=30	=30	=30	=30	=30	=30	=30	=30	=30	=30	=30	=30	=30	=30	=30	=30	=30	=30	=30
*	*	*	*	*	*	*	*	*Xij	*	*	*	*	*	*	*	*	*	*	*
*tremolo	*	*	*	*	*color:auto	*	*	*color:red	*color:auto	*	*2\right	*Xij	*	*	*	*	*	*	*
8F\L 8BB-\	.	16ddd-X\LL	fpp	2.BB-^/	a-	.	2.d-X^\	ma	a-	.	(2.b-^\	a-	.	.	[1ff\^	a-	ma-	.	1ryy
.	.	16eee-X\	.	.	.	.	.	.	.	.	.	.	.	.	.	.	.	.	.
8B-\	.	16ddd-\	.	.	.	.	.	.	.	.	.	.	.	.	.	.	.	.	.
.	.	16eee-\JJ	.	.	.	.	.	.	.	.	.	.	.	.	.	.	.	.	.
*	*	*rep	*	*	*	*	*	*	*	*	*	*	*	*	*	*	*	*	*
8F\ 8BB-\	.	16ddd-\LL	.	.	.	.	.	.	.	.	.	.	.	.	.	.	.	.	.
.	.	16eee-\	.	.	.	.	.	.	.	.	.	.	.	.	.	.	.	.	.
8B-\	.	16ddd-\	.	.	.	.	.	.	.	.	.	.	.	.	.	.	.	.	.
.	.	16eee-\JJ	.	.	.	.	.	.	.	.	.	.	.	.	.	.	.	.	.
*	*	*Xrep	*	*	*	*	*	*	*	*	*	*	*	*	*	*	*	*	*
*	*	*rep	*	*	*	*	*	*	*	*	*	*	*	*	*	*	*	*	*
8F\ 8BB-\	.	16ddd-\LL	.	.	.	.	.	.	.	.	.	.	.	.	.	.	.	.	.
.	.	16eee-\	.	.	.	.	.	.	.	.	.	.	.	.	.	.	.	.	.
8B-\J	.	16ddd-\	.	.	.	.	.	.	.	.	.	.	.	.	.	.	.	.	.
.	.	16eee-\JJ	.	.	.	.	.	.	.	.	.	.	.	.	.	.	.	.	.
*Xtremolo	*	*Xrep	*	*	*ij	*	*	*	*ij	*	*	*	*	*	*	*	*	*	*
16C\LL	.	16ccc\LL	.	4C/	.	.	4e-X\	tor-	.	.	4a\)	.	.	.	.	.	.	.	.
16c\	.	16ddd-\	.	.	.	.	.	.	.	.	.	.	.	.	.	.	.	.	.
16C\	.	16ccc\	.	.	.	.	.	.	.	.	.	.	.	.	.	.	.	.	.
16c\JJ	.	16ddd-\JJ	.	.	.	.	.	.	.	.	.	.	.	.	.	.	.	.	.
=31	=31	=31	=31	=31	=31	=31	=31	=31	=31	=31	=31	=31	=31	=31	=31	=31	=31	=31	=31
16F\LL 16D-X\	.	16bb-X\LL	.	4D-X/	-ni	.	4f\	-nar	-ni	.	4b-\	-ni	.	.	4ff\]	.	.	.	1ryy
16B-\	.	16ccc\	.	.	.	.	.	.	.	.	.	.	.	.	.	.	.	.	.
16F\ 16D-\	.	16bb-\	.	.	.	.	.	.	.	.	.	.	.	.	.	.	.	.	.
16B-\JJ	.	16ccc\JJ	.	.	.	.	.	.	.	.	.	.	.	.	.	.	.	.	.
16F\LL 16C\	.	16aa-X\LL	.	4C/	się	.	4e-X\	tor-	się	.	4f/	się	.	.	8.f/	-ni	-ma	.	.
16c\	.	16bb-\	.	.	.	.	.	.	.	.	.	.	.	.	.	.	.	.	.
16F\ 16C\	.	16aa-\	.	.	.	.	.	.	.	.	.	.	.	.	.	.	.	.	.
16c\JJ	.	16bb-\JJ	.	.	.	.	.	.	.	.	.	.	.	.	16f/	się	tor-	.	.
*	*	*	*	*	*	*	*	*	*	*	*	*ij	*	*	*	*	*	*	*
16F\LL 16BB-\	.	16gg\LL	.	4BB-/	wzbić	.	4d-X\	-nar	wzbić	.	4f/	wzbić	.	.	4f/	wzbić	-nar	.	.
16d-X\	.	16aa-\	.	.	.	.	.	.	.	.	.	.	.	.	.	.	.	.	.
16F\ 16BB-\	.	16gg\	.	.	.	.	.	.	.	.	.	.	.	.	.	.	.	.	.
16d-\JJ	.	16aa-\JJ	.	.	.	.	.	.	.	.	.	.	.	.	.	.	.	.	.
16F\LL 16BBn\	.	16ff\LL	.	4BBn/	w nie-	.	4dn\	non	w nie-	.	4a-X/	w nie-	.	.	4f/	w nie-	non	.	.
16dn\	.	16gg\	.	.	.	.	.	.	.	.	.	.	.	.	.	.	.	.	.
16F\ 16BB\	.	16ff\	.	.	.	.	.	.	.	.	.	.	.	.	.	.	.	.	.
16d\JJ	.	16gg\JJ	.	.	.	.	.	.	.	.	.	.	.	.	.	.	.	.	.
=32	=32	=32	=32	=32	=32	=32	=32	=32	=32	=32	=32	=32	=32	=32	=32	=32	=32	=32	=32
4.c\ 4.F\ 4.C\	.	(16aa\LL	>	4.C/	-bio-	.	4.c\	puo-	-bio-	.	4.an/	-bio-	.	.	4.cc\	-bio-	puo-	.	1ryy
.	.	16gg\	.	.	.	.	.	.	.	.	.	.	.	.	.	.	.	.	.
.	.	16ff\	.	.	.	.	.	.	.	.	.	.	.	.	.	.	.	.	.
.	.	16ee\JJ	.	.	.	.	.	.	.	.	.	.	.	.	.	.	.	.	.
.	.	16dd\LL	.	.	.	.	.	.	.	.	.	.	.	.	.	.	.	.	.
.	.	16cc\	.	.	.	.	.	.	.	.	.	.	.	.	.	.	.	.	.
8c\ 8F\ 8C\	.	16b-\	]	8C/	-sa,	.	8A\	-te a	-sa,	.	8f/	-sa,	.	.	8cc\	-sa,	-te a	.	.
.	.	16a\JJ)	.	.	.	.	.	.	.	.	.	.	.	.	.	.	.	.	.
*tremolo	*	*	*	*	*	*	*	*	*	*	*	*	*	*	*	*	*	*	*
!LO:TX:t=....	!	!	!	!	!	!	!	!	!	!	!	!	!	!	!	!	!	!	!
8B-X\L 8E\ 8C#X'\	.	(16g\LL	>	4.C#X/	a-	.	4.G/	vi-	a-	.	4.e/	a-	.	.	4.b-\	a-	vi-	.	.
.	.	16a\	.	.	.	.	.	.	.	.	.	.	.	.	.	.	.	.	.
8B-\ 8E\ 8C#'\	.	16b-\	]	.	.	.	.	.	.	.	.	.	.	.	.	.	.	.	.
.	.	16cc\JJ	.	.	.	.	.	.	.	.	.	.	.	.	.	.	.	.	.
8B-\ 8E\ 8C#'\	.	16dd\LL	.	.	.	.	.	.	.	.	.	.	.	.	.	.	.	.	.
.	.	16ee\	.	.	.	.	.	.	.	.	.	.	.	.	.	.	.	.	.
8B-\J 8E\ 8C#'\	.	16ff\	.	8C#/	-ni	.	8G/	-ta	-ni	.	8e/	-ni	.	.	8b-\	-ni	-ta	.	.
.	.	16gg\JJ)	.	.	.	.	.	.	.	.	.	.	.	.	.	.	.	.	.
*Xtremolo	*	*	*	*	*Xij	*	*	*color:auto	*Xij	*	*	*Xij	*	*	*	*color:red	*color:auto	*	*
!!LO:LB:g=original
=33	=33	=33	=33	=33	=33	=33	=33	=33	=33	=33	=33	=33	=33	=33	=33	=33	=33	=33	=33
*	*	*	*	*	*	*	*	*	*color:red	*	*	*	*	*	*	*	*	*	*
4.A\ 4.F\ 4.D\	.	16ff\LL	.	4.D\	zie-	.	4.F/	zie-	nè il	.	4.f/	zie-	.	.	4.a/	nè il	zie-	.	1ryy
.	.	16ee\	.	.	.	.	.	.	.	.	.	.	.	.	.	.	.	.	.
.	.	16dd\	.	.	.	.	.	.	.	.	.	.	.	.	.	.	.	.	.
.	.	16cc\JJ	.	.	.	.	.	.	.	.	.	.	.	.	.	.	.	.	.
.	.	16b-\LL	.	.	.	.	.	.	.	.	.	.	.	.	.	.	.	.	.
.	.	16a\	.	.	.	.	.	.	.	.	.	.	.	.	.	.	.	.	.
*	*	*	*	*	*ij	*	*	*ij	*	*	*	*ij	*	*	*	*	*	*	*
8A\ 8D\	.	16g\	.	8D\	-mi	.	8d\	-mi	suo	.	8f/	-mi	.	.	8a/	suo	-mi	.	.
.	.	16f\JJ	.	.	.	.	.	.	.	.	.	.	.	.	.	.	.	.	.
*tremolo	*	*	*	*	*	*	*	*	*	*	*	*	*	*	*	*	*	*	*
!LO:TX:t=....	!	!	!	!	!	!	!	!	!	!	!	!	!	!	!	!	!	!	!
8G\L 8C#X\ 8AA'\	.	16e/LL	.	4.AA/	tknąć	.	4.c#X\	tknąć	spir-	.	4.e/	tknąć	.	.	4.g/	spir-	tknąć	.	.
.	.	16f/	.	.	.	.	.	.	.	.	.	.	.	.	.	.	.	.	.
8G\ 8C#\ 8AA'\	.	16g/	.	.	.	.	.	.	.	.	.	.	.	.	.	.	.	.	.
.	.	16a/JJ	.	.	.	.	.	.	.	.	.	.	.	.	.	.	.	.	.
8G\ 8C#\ 8AA'\	.	16bn\LL	.	.	.	.	.	.	.	.	.	.	.	.	.	.	.	.	.
.	.	16cc#X\	.	.	.	.	.	.	.	.	.	.	.	.	.	.	.	.	.
8G\J 8C#\ 8AA'\	.	16dd\	.	8AA/	nie	.	8c#\	nie	-to in	.	8e/	nie	.	.	8g/	-to in	nie	.	.
.	.	16ee\JJ	.	.	.	.	.	.	.	.	.	.	.	.	.	.	.	.	.
*Xtremolo	*	*	*	*	*	*	*	*	*	*	*	*	*	*	*	*	*	*	*
=34	=34	=34	=34	=34	=34	=34	=34	=34	=34	=34	=34	=34	=34	=34	=34	=34	=34	=34	=34
*^	*	*	*	*	*	*	*	*	*	*	*	*	*	*	*	*	*	*	*
*	*^	*	*	*	*	*	*	*	*	*	*	*	*	*	*	*	*	*	*	*
*	*	*	*	*	*	*	*	*	*	*	*	*	*	*	*	*	*^	*	*	*	*
*	*	*	*	*	*	*	*	*	*	*	*	*	*^	*	*	*	*	*	*	*	*	*
*	*	*	*	*	*	*	*	*	*^	*	*	*	*	*	*	*	*	*	*	*	*	*	*
1d/	2G/	2D\ 2BB-\	.	16dd\LL	.	2.BB-/	mo-	.	(4d\	2ryy	mo-	ciel	.	2.f/	2.ryy	mo-	.	.	2f/	2ryy	ciel	mo-	.	1ryy
.	.	.	.	16b-\	.	.	.	.	.	.	.	.	.	.	.	.	.	.	.	.	.	.	.	.
.	.	.	.	16g\	.	.	.	.	.	.	.	.	.	.	.	.	.	.	.	.	.	.	.	.
.	.	.	.	16f#X\JJ	.	.	.	.	.	.	.	.	.	.	.	.	.	.	.	.	.	.	.	.
.	.	.	.	16g\LL	.	.	.	.	4G/)	.	.	.	.	.	.	.	.	.	.	.	.	.	.	.
.	.	.	.	16a\	.	.	.	.	.	.	.	.	.	.	.	.	.	.	.	.	.	.	.	.
.	.	.	.	16b-\	.	.	.	.	.	.	.	.	.	.	.	.	.	.	.	.	.	.	.	.
.	.	.	.	16a\JJ	.	.	.	.	.	.	.	.	.	.	.	.	.	.	.	.	.	.	.	.
.	2A-X/	4ryy	.	16b-\LL	.	.	.	.	2A-X/	4.A-X/@	-że,	pe-	.	.	.	.	.	.	2dd\	4.dd\@	pe-	-że,	.	.
.	.	.	.	16cc\	.	.	.	.	.	.	.	.	.	.	.	.	.	.	.	.	.	.	.	.
.	.	.	.	16dd\	.	.	.	.	.	.	.	.	.	.	.	.	.	.	.	.	.	.	.	.
.	.	.	.	16ee\JJ	.	.	.	.	.	.	.	.	.	.	.	.	.	.	.	.	.	.	.	.
.	.	4BBn\	.	16gg\LL	.	4BBn/	-że,	.	.	.	.	.	.	4f/	8f/@	-że,	.	.	.	.	.	.	.	.
.	.	.	.	16ff\	.	.	.	.	.	.	.	.	.	.	.	.	.	.	.	.	.	.	.	.
.	.	.	.	16ee\	.	.	.	.	.	8A-/@	.	.	.	.	8f/@	.	.	.	.	8dd\@	.	.	.	.
.	.	.	.	16dd\JJ	.	.	.	.	.	.	.	.	.	.	.	.	.	.	.	.	.	.	.	.
*v	*v	*v	*	*	*	*	*	*	*	*	*	*	*	*	*	*	*	*	*	*	*	*	*	*
=35	=35	=35	=35	=35	=35	=35	=35	=35	=35	=35	=35	=35	=35	=35	=35	=35	=35	=35	=35	=35	=35	=35
*	*	*	*	*^	*	*	*	*	*	*	*	*	*	*	*	*	*	*	*	*	*	*
4An\ 4F\ 4C\	.	16cc\LL	.	8C/	4ryy	ni	.	8An/	4ryy	nie	-ne-	.	8f/	4ryy	ni	.	.	8cc\	4ryy	-ne-	ni	.	1ryy
.	.	16bn\	.	.	.	.	.	.	.	.	.	.	.	.	.	.	.	.	.	.	.	.	.
.	.	16dd\	.	8r	.	.	.	8r	.	.	.	.	8r	.	.	.	.	8ryy	.	.	.	.	.
.	.	16cc\JJ	.	.	.	.	.	.	.	.	.	.	.	.	.	.	.	.	.	.	.	.	.
[4F\ 4D-X\	.	16b-X\LL	.	8.D-X\	8D-X\@	zie-	.	8.B-\	8B-\@	zie-	-tra	.	8.f/	8f\@	zie-	.	.	8.b-\	8b-\@	-tra	zie-	.	.
.	.	16a\	.	.	.	.	.	.	.	.	.	.	.	.	.	.	.	.	.	.	.	.	.
.	.	16cc\	.	.	8r@	.	.	.	8r@	.	.	.	.	8r@	.	.	.	.	8r@	.	.	.	.
.	.	16b-\JJ	.	16D-\	.	-mi	.	16B-\	.	-mi	in	.	16f/	.	-mi	.	.	16b-\	.	in	-mi	.	.
4c\ 4F\] 4C\	.	16a/LL	.	8C\	2ryy	tknąć	.	8c\	2ryy	tknąć	ciel	.	8f/	2ryy	tknąć	.	.	8a/	2ryy	ciel	tknąć	.	.
.	.	16g#X/	.	.	.	.	.	.	.	.	.	.	.	.	.	.	.	.	.	.	.	.	.
.	.	16b-/	.	8r	.	.	.	8r	.	.	.	.	8r	.	.	.	.	8r	.	.	.	.	.
.	.	16a/JJ	.	.	.	.	.	.	.	.	.	.	.	.	.	.	.	.	.	.	.	.	.
4B-\ 4E\ 4C\	.	16gn/LL	.	8C\	.	nie	.	8c\	.	nie	pe	.	8e/	.	nie	.	.	8g/	.	pe-	nie	.	.
*	*	*	*	*	*	*Xij	*	*	*	*Xij	*	*	*	*	*Xij	*	*	*	*	*	*	*	*
.	.	16f#X/	.	.	.	.	.	.	.	.	.	.	.	.	.	.	.	.	.	.	.	.	.
!	!	!	!	!	!	!	!	!	!	!	!	!	!	!	!	!	!	!LO:TX:b:t=V&colon;S&colon;	!	!	!	!	!
.	.	16a/	.	8r	.	.	.	8r	.	.	.	.	8r	.	.	.	.	8r	.	.	.	.	.
!	!	!LO:TX:b:t=V&colon;S&colon;	!	!	!	!	!	!	!	!	!	!	!	!	!	!	!	!	!	!	!	!	!
.	.	16g/JJ	.	.	.	.	.	.	.	.	.	.	.	.	.	.	.	.	.	.	.	.	.
*	*	*	*	*v	*v	*	*	*	*	*	*	*	*	*	*	*	*	*	*	*	*	*	*
*	*	*	*	*	*	*	*v	*v	*	*	*	*	*	*	*	*	*	*	*	*	*	*
*	*	*	*	*	*	*	*	*	*	*	*v	*v	*	*	*	*	*	*	*	*	*
*	*	*	*	*	*	*	*	*	*	*	*	*	*	*	*v	*v	*	*	*	*
!!LO:PB:g=original
=36	=36	=36	=36	=36	=36	=36	=36	=36	=36	=36	=36	=36	=36	=36	=36	=36	=36	=36	=36
.	.	8qf/	.	.	.	.	.	.	.	.	.	.	.	.	.	.	.	.	.
*^	*	*	*	*	*	*	*	*	*	*	*	*	*	*	*	*	*	*	*
*	*tremolo	*	*	*	*	*	*	*	*color:red	*color:auto	*	*	*	*Xij	*	*	*	*	*	*
!	!LO:N:vis=2	!	!	!	!	!	!	!	!	!	!	!	!	!	!	!	!	!	!	!
2.A/ 2.C/	8FF\L	.	16ff\LL	.	1F/ 1FF/	mo-	.	1F/	ne-	mo-	.	1f/	mo-	ne-	.	1f/	-ne-	mo-	.	1ryy
.	.	.	16gg\	.	.	.	.	.	.	.	.	.	.	.	.	.	.	.	.	.
.	8FF\	.	16ff\	.	.	.	.	.	.	.	.	.	.	.	.	.	.	.	.	.
.	.	.	16gg\JJ	.	.	.	.	.	.	.	.	.	.	.	.	.	.	.	.	.
.	8FF\	.	16ff\LL	.	.	.	.	.	.	.	.	.	.	.	.	.	.	.	.	.
.	.	.	16gg\	.	.	.	.	.	.	.	.	.	.	.	.	.	.	.	.	.
.	8FF\	.	16ff\	.	.	.	.	.	.	.	.	.	.	.	.	.	.	.	.	.
.	.	.	16gg\JJ	.	.	.	.	.	.	.	.	.	.	.	.	.	.	.	.	.
.	8FF\	.	16ff\LL	.	.	.	.	.	.	.	.	.	.	.	.	.	.	.	.	.
.	.	.	16gg\	.	.	.	.	.	.	.	.	.	.	.	.	.	.	.	.	.
.	8FF\J	.	16ff\	.	.	.	.	.	.	.	.	.	.	.	.	.	.	.	.	.
.	.	.	16gg\JJ	.	.	.	.	.	.	.	.	.	.	.	.	.	.	.	.	.
4AA/	8FF\L	.	16ee\LL	.	.	.	.	.	.	.	.	.	.	.	.	.	.	.	.	.
.	.	.	16ff\	.	.	.	.	.	.	.	.	.	.	.	.	.	.	.	.	.
.	8FF\J	.	16ee\	.	.	.	.	.	.	.	.	.	.	.	.	.	.	.	.	.
.	.	.	16ff\JJ	.	.	.	.	.	.	.	.	.	.	.	.	.	.	.	.	.
=37	=37	=37	=37	=37	=37	=37	=37	=37	=37	=37	=37	=37	=37	=37	=37	=37	=37	=37	=37	=37
*	*	*	*^	*	*^	*	*	*	*	*	*	*	*	*	*	*	*	*	*	*
4D/ 4BB-/	8FF\L	.	16dd/LL	4b-\	.	4F/	4FF\	-że,	.	4F/	-tra	-że,	.	8f/	-że,	-tra	.	4f/	-tra	-że.	.	1ryy
.	.	.	16ee/	.	.	.	.	.	.	.	.	.	.	.	.	.	.	.	.	.	.	.
.	8FF\	.	16dd/	.	.	.	.	.	.	.	.	.	.	8r	.	.	.	.	.	.	.	.
.	.	.	16ee/JJ	.	.	.	.	.	.	.	.	.	.	.	.	.	.	.	.	.	.	.
4E/ 4C/	8FF\	.	16cc/LL	4a\	.	4r	2.ryy	.	.	4r	.	.	.	(4c/	a-	nè	.	4r	.	.	.	.
.	.	.	16dd/	.	.	.	.	.	.	.	.	.	.	.	.	.	.	.	.	.	.	.
.	8FF\J	.	16cc/	.	.	.	.	.	.	.	.	.	.	.	.	.	.	.	.	.	.	.
.	.	.	16dd/JJ	.	.	.	.	.	.	.	.	.	.	.	.	.	.	.	.	.	.	.
4F/ 4D/	8FF\L	.	16bn/LL	4g#X\	.	2r	.	.	.	2r	.	.	.	4d/)	.	il	.	2r	.	.	.	.
.	.	.	16cc/	.	.	.	.	.	.	.	.	.	.	.	.	.	.	.	.	.	.	.
.	8FF\	.	16b/	.	.	.	.	.	.	.	.	.	.	.	.	.	.	.	.	.	.	.
.	.	.	16cc/JJ	.	.	.	.	.	.	.	.	.	.	.	.	.	.	.	.	.	.	.
4G/ 4E/	8FF\	.	16b-X/LL	4gn\	.	.	.	.	.	.	.	.	.	4c/	-ni	suo	.	.	.	.	.	.
.	.	.	16cc/	.	.	.	.	.	.	.	.	.	.	.	.	.	.	.	.	.	.	.
.	8FF\J	.	16b-/	.	.	.	.	.	.	.	.	.	.	.	.	.	.	.	.	.	.	.
.	.	.	16cc/JJ	.	.	.	.	.	.	.	.	.	.	.	.	.	.	.	.	.	.	.
*	*	*	*v	*v	*	*	*	*	*	*	*	*	*	*	*	*	*	*	*	*	*	*
*	*	*	*	*	*v	*v	*	*	*	*	*	*	*	*	*	*	*	*	*	*	*
=38	=38	=38	=38	=38	=38	=38	=38	=38	=38	=38	=38	=38	=38	=38	=38	=38	=38	=38	=38	=38
*^	*	*	*	*	*	*	*	*	*	*	*	*	*	*	*	*	*	*	*	*
4A/ 4F/	4ryy	8FF\L	.	16a/LL	.	1r	.	.	1r	.	.	.	4.f/	wzbić	spir-	.	1r	.	.	.	1ryy
.	.	.	.	16b-/	.	.	.	.	.	.	.	.	.	.	.	.	.	.	.	.	.
.	.	8FF\	.	16a/	.	.	.	.	.	.	.	.	.	.	.	.	.	.	.	.	.
.	.	.	.	16b-/JJ	.	.	.	.	.	.	.	.	.	.	.	.	.	.	.	.	.
8B-/L	4G\	8FF\	.	16g/LL	.	.	.	.	.	.	.	.	.	.	.	.	.	.	.	.	.
.	.	.	.	16a/	.	.	.	.	.	.	.	.	.	.	.	.	.	.	.	.	.
8Bn/J	.	8FF\J	.	16g/	.	.	.	.	.	.	.	.	8e/	się	-to in	.	.	.	.	.	.
.	.	.	.	16a/JJ	.	.	.	.	.	.	.	.	.	.	.	.	.	.	.	.	.
4B#X/ 4G#X/	2ryy	8FF\L	.	16f/LL	.	.	.	.	.	.	.	.	4f/	pod	ciel	.	.	.	.	.	.
.	.	.	.	16g/	.	.	.	.	.	.	.	.	.	.	.	.	.	.	.	.	.
.	.	8FF\	.	16f/	.	.	.	.	.	.	.	.	.	.	.	.	.	.	.	.	.
.	.	.	.	16g/JJ	.	.	.	.	.	.	.	.	.	.	.	.	.	.	.	.	.
4c#X/ 4A/	.	8FF\	.	16e/LL	.	.	.	.	.	.	.	.	4c#X/	nie-	pe-	.	.	.	.	.	.
.	.	.	.	16f/	.	.	.	.	.	.	.	.	.	.	.	.	.	.	.	.	.
.	.	8FF\J	.	16e/	.	.	.	.	.	.	.	.	.	.	.	.	.	.	.	.	.
.	.	.	.	16f/JJ	.	.	.	.	.	.	.	.	.	.	.	.	.	.	.	.	.
*v	*v	*	*	*	*	*	*	*	*	*	*	*	*	*	*	*	*	*	*	*	*
!!LO:LB:g=original
=39	=39	=39	=39	=39	=39	=39	=39	=39	=39	=39	=39	=39	=39	=39	=39	=39	=39	=39	=39	=39
*	*	*	*	*	*^	*	*	*	*	*	*	*	*	*	*	*	*	*	*	*
2d/ 2G/	4.BB-^\	.	16d/LL	.	2r	2.ryy	.	.	1r	.	.	.	2d/	-bio-	-ne-	.	1r	.	.	.	1ryy
.	.	.	16e/	.	.	.	.	.	.	.	.	.	.	.	.	.	.	.	.	.	.
.	.	.	16f/	.	.	.	.	.	.	.	.	.	.	.	.	.	.	.	.	.	.
.	.	.	16g/JJ	.	.	.	.	.	.	.	.	.	.	.	.	.	.	.	.	.	.
.	.	.	16a\LL	.	.	.	.	.	.	.	.	.	.	.	.	.	.	.	.	.	.
.	.	.	16b-\	.	.	.	.	.	.	.	.	.	.	.	.	.	.	.	.	.	.
.	8BB-\	.	16cc\	.	.	.	.	.	.	.	.	.	.	.	.	.	.	.	.	.	.
.	.	.	16dd\JJ	.	.	.	.	.	.	.	.	.	.	.	.	.	.	.	.	.	.
2c/ 2G/	8BB-\L	.	16ee\LL	.	4r	.	.	.	.	.	.	.	4c/	-sa,	-tra	.	.	.	.	.	.
.	.	.	16dd\	.	.	.	.	.	.	.	.	.	.	.	.	.	.	.	.	.	.
.	8BB-\	.	16cc\	.	.	.	.	.	.	.	.	.	.	.	.	.	.	.	.	.	.
.	.	.	16b-\JJ	.	.	.	.	.	.	.	.	.	.	.	.	.	.	.	.	.	.
*	*	*	*	*	*	*	*color:red	*	*	*	*	*	*	*	*	*	*	*	*	*	*
*	*	*	*	*	*	*	*below	*	*	*	*	*	*	*	*	*	*	*	*	*	*
.	8BB-\	.	16a/LL	.	4C/	8C/@	nè a	ni	.	.	.	.	4r	.	.	.	.	.	.	.	.
.	.	.	16g/	.	.	.	.	.	.	.	.	.	.	.	.	.	.	.	.	.	.
.	8BB-\J	.	16f/	.	.	8C/@	.	.	.	.	.	.	.	.	.	.	.	.	.	.	.
.	.	.	16e/JJ	.	.	.	.	.	.	.	.	.	.	.	.	.	.	.	.	.	.
*	*	*	*	*	*v	*v	*	*	*	*	*	*	*	*	*	*	*	*	*	*	*
=40	=40	=40	=40	=40	=40	=40	=40	=40	=40	=40	=40	=40	=40	=40	=40	=40	=40	=40	=40	=40
*rep	*rep	*	*rep	*	*	*	*	*	*	*	*	*	*	*	*	*	*	*	*	*
!	!	!	!	!	!LO:S:color=grey	!	!	!	!	!	!	!	!	!	!	!	!	!	!	!
2d/ 2G/	4.BB-^\	.	16d/LL	.	(2D/	vi-	zie-	1r	.	.	.	2r	.	.	.	1r	.	.	.	1ryy
.	.	.	16e/	.	.	.	.	.	.	.	.	.	.	.	.	.	.	.	.	.
.	.	.	16f/	.	.	.	.	.	.	.	.	.	.	.	.	.	.	.	.	.
.	.	.	16g/JJ	.	.	.	.	.	.	.	.	.	.	.	.	.	.	.	.	.
.	.	.	16a\LL	.	.	.	.	.	.	.	.	.	.	.	.	.	.	.	.	.
.	.	.	16b-\	.	.	.	.	.	.	.	.	.	.	.	.	.	.	.	.	.
.	8BB-\	.	16cc\	.	.	.	.	.	.	.	.	.	.	.	.	.	.	.	.	.
.	.	.	16dd\JJ	.	.	.	.	.	.	.	.	.	.	.	.	.	.	.	.	.
2c/ 2G/	8BB-\L	.	16ee\LL	.	4C/)	-ta	-mi	.	.	.	.	4r	.	.	.	.	.	.	.	.
.	.	.	16dd\	.	.	.	.	.	.	.	.	.	.	.	.	.	.	.	.	.
.	8BB-\	.	16cc\	.	.	.	.	.	.	.	.	.	.	.	.	.	.	.	.	.
.	.	.	16b-\JJ	.	.	.	.	.	.	.	.	.	.	.	.	.	.	.	.	.
.	8BB-\	.	16a/LL	.	4r	.	.	.	.	.	.	8r	.	.	.	.	.	.	.	.
.	.	.	16g/	.	.	.	.	.	.	.	.	.	.	.	.	.	.	.	.	.
.	8BB-\J	.	16f/	.	.	.	.	.	.	.	.	8c/	tknąć	nè a	.	.	.	.	.	.
.	.	.	16e/JJ	.	.	.	.	.	.	.	.	.	.	.	.	.	.	.	.	.
*Xrep	*Xrep	*	*Xrep	*	*	*	*	*	*	*	*	*	*	*	*	*	*	*	*	*
=41	=41	=41	=41	=41	=41	=41	=41	=41	=41	=41	=41	=41	=41	=41	=41	=41	=41	=41	=41	=41
*rep	*rep	*	*rep	*	*	*	*	*	*	*	*	*	*	*	*	*	*	*	*	*
!	!	!	!	!	!	!	!	!	!	!	!	!LO:S:color=grey	!	!	!	!	!	!	!	!
2d/ 2G/	4.BB-^\	.	16d/LL	.	2r	.	.	2r	.	.	.	(2d^/	zie-	vi-	.	2r	.	.	.	1ryy
.	.	.	16e/	.	.	.	.	.	.	.	.	.	.	.	.	.	.	.	.	.
.	.	.	16f/	.	.	.	.	.	.	.	.	.	.	.	.	.	.	.	.	.
.	.	.	16g/JJ	.	.	.	.	.	.	.	.	.	.	.	.	.	.	.	.	.
.	.	.	16a\LL	.	.	.	.	.	.	.	.	.	.	.	.	.	.	.	.	.
.	.	.	16b-\	.	.	.	.	.	.	.	.	.	.	.	.	.	.	.	.	.
.	8BB-\	.	16cc\	.	.	.	.	.	.	.	.	.	.	.	.	.	.	.	.	.
.	.	.	16dd\JJ	.	.	.	.	.	.	.	.	.	.	.	.	.	.	.	.	.
2c/ 2G/	8BB-\L	.	16ee\LL	.	4r	.	.	4r	.	.	.	4c/)	-mi	-ta	.	4r	.	.	.	.
.	.	.	16dd\	.	.	.	.	.	.	.	.	.	.	.	.	.	.	.	.	.
.	8BB-\	.	16cc\	.	.	.	.	.	.	.	.	.	.	.	.	.	.	.	.	.
.	.	.	16b-\JJ	.	.	.	.	.	.	.	.	.	.	.	.	.	.	.	.	.
.	8BB-\	.	16a/LL	.	8r	.	.	8r	.	.	.	8r	.	.	.	8r	.	.	.	.
.	.	.	16g/	.	.	.	.	.	.	.	.	.	.	.	.	.	.	.	.	.
*	*	*	*	*	*	*	*	*	*color:auto	*	*	*	*	*	*	*	*above	*	*	*
.	8BB-\J	.	16f/	.	8C/	non	nie	8c\	nie	.	.	8c/	nie	non	.	8c/	non	nie	.	.
.	.	.	16e/JJ	.	.	.	.	.	.	.	.	.	.	.	.	.	.	.	.	.
*Xrep	*Xrep	*	*Xrep	*	*	*	*	*	*	*	*	*	*	*	*	*	*	*	*	*
=42	=42	=42	=42	=42	=42	=42	=42	=42	=42	=42	=42	=42	=42	=42	=42	=42	=42	=42	=42	=42
*	*^	*	*	*	*	*	*	*	*	*	*	*	*	*	*	*	*	*	*	*
4d/	2G\	(<4BB-\	.	16d/LL	.	(4BB-/	può	mo-	(2G/	mo-	.	.	(4d/	mo-	può	.	(4d/	può	mo-	.	1ryy
.	.	.	.	16e/	.	.	.	.	.	.	.	.	.	.	.	.	.	.	.	.	.
.	.	.	.	16f/	.	.	.	.	.	.	.	.	.	.	.	.	.	.	.	.	.
.	.	.	.	16g/JJ	.	.	.	.	.	.	.	.	.	.	.	.	.	.	.	.	.
4c#X/	.	4AA\	.	16a\LL	.	4AA/	.	.	.	.	.	.	4c#X/	.	.	.	4e/	.	.	.	.
.	.	.	.	16bn\	.	.	.	.	.	.	.	.	.	.	.	.	.	.	.	.	.
.	.	.	.	16cc#X\	.	.	.	.	.	.	.	.	.	.	.	.	.	.	.	.	.
.	.	.	.	16dd\JJ	.	.	.	.	.	.	.	.	.	.	.	.	.	.	.	.	.
4cn/	2ryy	4F#X\ 4D\	.	16ee\LL	.	4D/	.	.	4D/	.	.	.	4cn/	.	.	.	4f#X/	.	.	.	.
.	.	.	.	16dd\	.	.	.	.	.	.	.	.	.	.	.	.	.	.	.	.	.
.	.	.	.	16ccn\	.	.	.	.	.	.	.	.	.	.	.	.	.	.	.	.	.
.	.	.	.	16b-X\JJ	.	.	.	.	.	.	.	.	.	.	.	.	.	.	.	.	.
4B-/	.	4G\ [<4C\)	.	16cc/LL	.	4C/)	tor-	.	4E/)	.	.	.	4B-/)	.	tor-	.	4g/)	tor-	.	.	.
.	.	.	.	16b-/	.	.	.	.	.	.	.	.	.	.	.	.	.	.	.	.	.
.	.	.	.	16a/	.	.	.	.	.	.	.	.	.	.	.	.	.	.	.	.	.
.	.	.	.	16g/JJ	.	.	.	.	.	.	.	.	.	.	.	.	.	.	.	.	.
*	*v	*v	*	*	*	*	*	*	*	*	*	*	*	*	*	*	*	*	*	*	*
!!LO:PB:g=original
=43	=43	=43	=43	=43	=43	=43	=43	=43	=43	=43	=43	=43	=43	=43	=43	=43	=43	=43	=43	=43
*	*	*	*	*	*	*above	*	*	*	*	*	*	*	*	*	*	*	*	*	*
2A/ 2C/]	1FF\	.	(16f\LL	.	[1F/ [>1FF/	-nar	-że,	(4F/	-że	.	.	4.A/	-że	-nar	.	4.a/	-nar,	-że,	.	1ryy
.	.	.	16g\	.	.	.	.	.	.	.	.	.	.	.	.	.	.	.	.	.
.	.	.	16a\	.	.	.	.	.	.	.	.	.	.	.	.	.	.	.	.	.
.	.	.	16b-\JJ	.	.	.	.	.	.	.	.	.	.	.	.	.	.	.	.	.
.	.	.	16cc\LL	.	.	.	.	4c\)	ni	.	.	.	.	.	.	.	.	.	.	.
.	.	.	16dd-X\	.	.	.	.	.	.	.	.	.	.	.	.	.	.	.	.	.
*	*	*	*	*	*	*	*	*	*	*	*	*	*	*	*	*	*	*below	*	*
*	*	*	*	*	*	*	*	*	*	*	*	*	*	*	*	*	*color:auto	*color:red	*	*
!	!	!	!	!	!	!	!	!	!	!	!	!	!	!	!LO:DY:a	!	!	!	!LO:DY:a	!
.	.	.	16ee-X\	.	.	.	.	.	.	.	.	8f/	ni	non	pp	8a/	ni	non	pp	.
.	.	.	16ff\JJ	.	.	.	.	.	.	.	.	.	.	.	.	.	.	.	.	.
*	*	*	*	*	*	*	*	*	*	*	*	*	*ij	*	*	*	*	*	*	*
!	!	!	!	!	!	!	!	!	!	!	!LO:DY:rj:t=pp	!	!	!	!	!	!	!	!	!
2d-X/ 2F/	.	.	16ee-\LL	.	.	.	.	8d-X'\	wzbić	.	pp	8f'/	wzbić	può	.	8b-'\	wzbić	può	.	.
.	.	.	16ff\	.	.	.	.	.	.	.	.	.	.	.	.	.	.	.	.	.
.	.	.	16ee-\	.	.	.	.	8d-'\	się	.	.	8f'/	się	tor-	.	8b-'\	się	tor-	.	.
.	.	.	16dd-\JJ	.	.	.	.	.	.	.	.	.	.	.	.	.	.	.	.	.
*	*	*	*	*	*	*	*	*	*ij	*	*	*	*	*	*	*	*	*	*	*
.	.	.	16cc\LL	.	.	.	.	8d-'\	pod	.	.	8f'/	pod	-na-	.	8b-'\	pod	-na-	.	.
.	.	.	16b-\	.	.	.	.	.	.	.	.	.	.	.	.	.	.	.	.	.
.	.	.	16an\	.	.	.	.	8d-'\	nie-	.	.	8f'/	nie-	-re a	.	8b-'\	nie-	-re a	.	.
.	.	.	16g\JJ)	.	.	.	.	.	.	.	.	.	.	.	.	.	.	.	.	.
=44	=44	=44	=44	=44	=44	=44	=44	=44	=44	=44	=44	=44	=44	=44	=44	=44	=44	=44	=44	=44
!	!	!	!	!	!	!	!	!	!	!	!	!LO:T:color=grey	!	!	!	!	!	!	!	!
2c/ 2E-X/	1FF\	.	(16f/LL	.	4F/] 4FF/]	.	.	4c\	-bio-	.	.	[4f/	-bio-	vi-	.	4a/	-bio-	vi-	.	1ryy
.	.	.	16g/	.	.	.	.	.	.	.	.	.	.	.	.	.	.	.	.	.
.	.	.	16a/	.	.	.	.	.	.	.	.	.	.	.	.	.	.	.	.	.
.	.	.	16b-/JJ	.	.	.	.	.	.	.	.	.	.	.	.	.	.	.	.	.
.	.	.	16cc\LL	.	4C/	non	ni	8A/	-sa,	.	.	8f/]	-sa,	-ta,	.	8f/	-sa,	-ta,	.	.
.	.	.	16dd-X\	.	.	.	.	.	.	.	.	.	.	.	.	.	.	.	.	.
.	.	.	16ee-X\	.	.	.	.	8F/	nie	.	.	8A'/	ni	non	.	8f'/	ni	non	.	.
.	.	.	16ff\JJ	.	.	.	.	.	.	.	.	.	.	.	.	.	.	.	.	.
2B-/ 2D-X/	.	.	16ee-\LL	.	8D-X'/	può	zie-	8F'/	zie-	.	.	8B-'/	zie-	può	.	8g'/	zie-	può	.	.
.	.	.	16ff\	.	.	.	.	.	.	.	.	.	.	.	.	.	.	.	.	.
.	.	.	16ee-\	.	8D-'/	tor-	-mi	8F'/	-mi	.	.	8B-'/	-mi	tor-	.	8g'/	-mi	tor-	.	.
.	.	.	16dd-\JJ	.	.	.	.	.	.	.	.	.	.	.	.	.	.	.	.	.
*	*	*	*	*	*	*	*ij	*	*	*	*	*	*	*	*	*	*	*	*	*
.	.	.	16cc\LL	.	8D-'/	-na-	tknąć	8F'/	tknąć	.	.	8B-'/	tknąć	-na-	.	8g'/	tknąć	-na-	.	.
.	.	.	16b-\	.	.	.	.	.	.	.	.	.	.	.	.	.	.	.	.	.
.	.	.	16a\	.	8BB-X'/	-re a	nie	8F'/	nie	.	.	8d-X'/	nie	-re a	.	8g'/	nie	-re a	.	.
.	.	.	16g\JJ)	.	.	.	.	.	.	.	.	.	.	.	.	.	.	.	.	.
=45	=45	=45	=45	=45	=45	=45	=45	=45	=45	=45	=45	=45	=45	=45	=45	=45	=45	=45	=45	=45
[1A/	(>4.FF\	.	(16f/LL	.	[1F/ [>1FF/	vi-	mo-	(>1A/	mo-	.	.	(>1c/	mo-	vi-	.	[>1f/	mo-	vi-	.	1ryy
.	.	.	16g/	.	.	.	.	.	.	.	.	.	.	.	.	.	.	.	.	.
.	.	.	16a/	.	.	.	.	.	.	.	.	.	.	.	.	.	.	.	.	.
.	.	.	16b-/JJ	.	.	.	.	.	.	.	.	.	.	.	.	.	.	.	.	.
.	.	.	16cc/LL	.	.	.	.	.	.	.	.	.	.	.	.	.	.	.	.	.
.	.	.	16b-/	.	.	.	.	.	.	.	.	.	.	.	.	.	.	.	.	.
.	8C\	.	16a/	.	.	.	.	.	.	.	.	.	.	.	.	.	.	.	.	.
.	.	.	16g/JJ)	.	.	.	.	.	.	.	.	.	.	.	.	.	.	.	.	.
.	4.FF\	.	(16f/LL	.	.	.	.	.	.	.	.	.	.	.	.	.	.	.	.	.
.	.	.	16g/	.	.	.	.	.	.	.	.	.	.	.	.	.	.	.	.	.
.	.	.	16a/	.	.	.	.	.	.	.	.	.	.	.	.	.	.	.	.	.
.	.	.	16b-/JJ	.	.	.	.	.	.	.	.	.	.	.	.	.	.	.	.	.
.	.	.	16cc/LL	.	.	.	.	.	.	.	.	.	.	.	.	.	.	.	.	.
.	.	.	16b-/	.	.	.	.	.	.	.	.	.	.	.	.	.	.	.	.	.
.	8C\)	.	16a/	.	.	.	.	.	.	.	.	.	.	.	.	.	.	.	.	.
.	.	.	16g/JJ)	.	.	.	.	.	.	.	.	.	.	.	.	.	.	.	.	.
!!LO:LB:g=original
=46	=46	=46	=46	=46	=46	=46	=46	=46	=46	=46	=46	=46	=46	=46	=46	=46	=46	=46	=46	=46
*	*	*	*	*	*	*	*	*	*	*	*	*	*	*	*	*^	*	*	*	*
*	*	*	*	*	*	*	*	*	*	*	*	*^	*	*	*	*	*	*	*	*	*
*	*	*	*	*	*	*	*	*^	*	*	*	*	*	*	*	*	*	*	*	*	*	*
*	*	*	*	*	*^	*	*	*	*	*	*	*	*	*	*	*	*	*	*	*	*	*	*
!	!	!	!	!	!LO:TX:n=2:t=P:problem=zakończenie łuku na dole	!	!	!	!	!	!	!	!	!	!	!	!	!	!LO:T:color=red	!LO:N:vis=2.	!	!	!	!
(<4A/]	1FF\	.	(16f\LL	.	1F/] 1FF/]	2F\@ 2FF\@	.	.	1C/)	2C/@	.	.	.	1A/)	2A/@	.	.	.	1f/_>	2f/@	.	.	.	1ryy
.	.	.	16g\	.	.	.	.	.	.	.	.	.	.	.	.	.	.	.	.	.	.	.	.	.
.	.	.	16a\	.	.	.	.	.	.	.	.	.	.	.	.	.	.	.	.	.	.	.	.	.
.	.	.	16b-\JJ	.	.	.	.	.	.	.	.	.	.	.	.	.	.	.	.	.	.	.	.	.
4F/	.	.	16cc\LL	.	.	.	.	.	.	.	.	.	.	.	.	.	.	.	.	.	.	.	.	.
.	.	.	16dd\	.	.	.	.	.	.	.	.	.	.	.	.	.	.	.	.	.	.	.	.	.
.	.	.	16ee\	.	.	.	.	.	.	.	.	.	.	.	.	.	.	.	.	.	.	.	.	.
.	.	.	16ff\JJ	.	.	.	.	.	.	.	.	.	.	.	.	.	.	.	.	.	.	.	.	.
4C/	.	.	16gg\LL	.	.	4.F\@	.	.	.	4.F/@	.	.	.	.	4.f/@	.	.	.	.	4.f/@	.	.	.	.
.	.	.	16aa\	.	.	.	.	.	.	.	.	.	.	.	.	.	.	.	.	.	.	.	.	.
.	.	.	16bb-\	.	.	.	.	.	.	.	.	.	.	.	.	.	.	.	.	.	.	.	.	.
.	.	.	16ccc\JJ	.	.	.	.	.	.	.	.	.	.	.	.	.	.	.	.	.	.	.	.	.
*	*	*	*8va	*	*	*	*	*	*	*	*	*	*	*	*	*	*	*	*	*	*	*	*	*
4AA/)	.	.	16ddd\LL	.	.	.	.	.	.	.	.	.	.	.	.	.	.	.	.	.	.	.	.	.
.	.	.	16eee\	.	.	.	.	.	.	.	.	.	.	.	.	.	.	.	.	.	.	.	.	.
.	.	.	16fff\	.	.	8F\@	.	.	.	8F/@	.	.	.	.	8f/@	.	.	.	.	8f/@	.	.	.	.
.	.	.	16ggg\JJ	.	.	.	.	.	.	.	.	.	.	.	.	.	.	.	.	.	.	.	.	.
*	*	*	*	*	*v	*v	*	*	*	*	*	*	*	*	*	*	*	*	*	*	*	*	*	*
*	*	*	*	*	*	*	*	*v	*v	*	*	*	*	*	*	*	*	*	*	*	*	*	*
*	*	*	*	*	*	*	*	*	*	*	*	*v	*v	*	*	*	*	*	*	*	*	*
*	*	*	*	*	*	*	*	*	*	*	*	*	*	*	*	*v	*v	*	*	*	*
*v	*v	*	*	*	*	*	*	*	*	*	*	*	*	*	*	*	*	*	*	*
=47	=47	=47	=47	=47	=47	=47	=47	=47	=47	=47	=47	=47	=47	=47	=47	=47	=47	=47	=47
8FF'/	.	8aaa\)	.	8F\	-ta	-że	8F/	-że	.	.	8A/	-że	-ta,	.	8f/]	-że	-ta,	.	1ryy
*	*	*X8va	*	*	*	*	*	*	*	*	*	*	*	*	*	*	*	*	*
8r	.	8r	.	8r	.	.	8r	.	.	.	8r	.	.	.	8r	.	.	.	.
8AA'/	.	8a/ 8e/ 8c#X'/	.	8AA/	nè in	dot-	8G/	dot-	.	.	8c#X/	dot-	nè in	.	8e/	dot-	nè in	.	.
8r	.	8r	.	8r	.	.	8r	.	.	.	8r	.	.	.	8r	.	.	.	.
8D'\	.	8f/ 8d'/	.	8D\	ciel	-knąć	8F/	-knąć	.	.	8d/	-knąć	ciel	.	8f/	-knąć	ciel	.	.
8r	.	8r	.	8r	.	.	8r	.	.	.	8r	.	.	.	8r	.	.	.	.
8G\ 8C'\	.	8cc/ 8e'/	.	8C\	pe-	nie	8E/	nie	.	.	8cn/	nie	pe-	.	8.a/L	nie	pe-	.	.
8r	.	8r	.	8r	.	.	8r	.	.	.	8r	.	.	.	.	.	.	.	.
.	.	.	.	.	.	.	.	.	.	.	.	.	.	.	16g/Jk	.	.	.	.
=48	=48	=48	=48	=48	=48	=48	=48	=48	=48	=48	=48	=48	=48	=48	=48	=48	=48	=48	=48
*^	*	*^	*	*	*	*	*	*	*	*	*	*	*	*	*	*	*	*	*
*	*	*	*	*2\right	*	*	*	*	*	*	*	*	*	*	*	*	*	*	*	*	*
1G/	2GG\	.	(2bn/	2d\	.	(2GG/	-ne-	mo-	(2D/	mo-	.	.	(2Bn/	mo-	-ne-	.	1g/	mo-	-ne-	.	1ryy
*	*	*	*	*	*	*	*	*Xij	*	*Xij	*	*	*	*Xij	*	*	*	*	*	*	*
.	2C\ 2CC\	.	2b-X/	2e\	.	2C/)	.	.	2E/)	.	.	.	2B-X/)	.	.	.	.	.	.	.	.
*v	*v	*	*	*	*	*	*	*	*	*	*	*	*	*	*	*	*	*	*	*	*
*	*	*v	*v	*	*	*	*	*	*	*	*	*	*	*	*	*	*	*	*	*
=49	=49	=49	=49	=49	=49	=49	=49	=49	=49	=49	=49	=49	=49	=49	=49	=49	=49	=49	=49
*^	*	*	*	*	*	*	*	*	*	*	*	*	*	*	*	*	*	*	*
8C\ 8FF\	8F/	.	8a/ 8f/)	.	8FF/	-tra.	-że.	8F/	-że.	.	.	8A/	-że.	-tra.	.	8f/	-że.	-tra	.	1ryy
8r	8ryy	.	8r	.	8r	.	.	8r	.	.	.	8r	.	.	.	8r	.	.	.	.
!	!	!	!LO:TUP:a:problem=klamra łukowa	!	!	!	!	!	!	!	!	!	!	!	!	!	!	!	!	!
4r	2.ryy	.	24F</LL	.	4r	.	.	4r	.	.	.	4r	.	.	.	4r	.	.	.	.
.	.	.	24G</	.	.	.	.	.	.	.	.	.	.	.	.	.	.	.	.	.
.	.	.	24F</	.	.	.	.	.	.	.	.	.	.	.	.	.	.	.	.	.
.	.	.	24G</	.	.	.	.	.	.	.	.	.	.	.	.	.	.	.	.	.
.	.	.	24F</	.	.	.	.	.	.	.	.	.	.	.	.	.	.	.	.	.
.	.	.	24G</JJ	.	.	.	.	.	.	.	.	.	.	.	.	.	.	.	.	.
!LO:TX:b:i:t=rallent	!	!	!	!	!	!	!	!	!	!	!	!	!	!	!	!	!	!	!	!
2C\ 2AA\	.	.	(<2F<TT/	.	2r	.	.	2r	.	.	.	2r	.	.	.	2r	.	.	.	.
.	.	.	16qqE</LL	.	.	.	.	.	.	.	.	.	.	.	.	.	.	.	.	.
.	.	.	16qqF</JJ	.	.	.	.	.	.	.	.	.	.	.	.	.	.	.	.	.
*v	*v	*	*	*	*	*	*	*	*	*	*	*	*	*	*	*	*	*	*	*
=50	=50	=50	=50	=50	=50	=50	=50	=50	=50	=50	=50	=50	=50	=50	=50	=50	=50	=50	=50
1C/;< 1FF/	.	1f</ 1A</;)	.	1r;	.	.	1r;	.	.	.	1r;	.	.	.	1r;	.	.	.	1ryy
==	==	==	==	==	==	==	==	==	==	==	==	==	==	==	==	==	==	==	==
*-	*-	*-	*-	*-	*-	*-	*-	*-	*-	*-	*-	*-	*-	*-	*-	*-	*-	*-	*-
!!!system-decoration: s1[s2,s3,s4,s5][(s6,s7)]
!!!RDF**kern: > = above
!!!RDF**kern: < = below
!!!RDF**dynam: ppp = ppp.
!!!RDF**dynam: pp = pp.
!!!RDF**kern: @ = marked note, color=grey
!!!ENC: Filip Voros
!!!END: 2021-09-19
!!!EED: Andrzej Borzym
!!!EEV: 2021-10-12
!!!YEC: Copyright 2022 Narodowy Instytut Fryderyka Chopina (https://polishscores.org)
!!!YEM: Licence CC BY 4.0 (https://creativecommons.org/licenses/by/4.0)
